;FLAVOR:Marlin
;TIME:2734
;Filament used: 3.12246m
;Layer height: 0.3
;MINX:73.145
;MINY:70.566
;MINZ:0.2
;MAXX:153.666
;MAXY:142.166
;MAXZ:55.1
;Generated with Cura_SteamEngine 4.11.0
M82 ;absolute extrusion mode
G21 ; set units to millimeters
G90 ; use absolute positioning
M82 ; absolute extrusion mode
M104 S215 ; set extruder temp
M140 S60 ; set bed temp
M190 S60 ; wait for bed temp
M109 S215 ; wait for extruder temp
G28 W ; home all without mesh bed level
G80 ; mesh bed leveling
G92 E0.0 ; reset extruder distance position
G1 Y-3.0 F1000.0 ; go outside print area
G1 X60.0 E9.0 F1000.0 ; intro line
G1 X100.0 E21.5 F1000.0 ; intro line
G92 E0.0 ; reset extruder distance position
G92 E0
G92 E0
G1 F2100 E-0.8
;LAYER_COUNT:184
;LAYER:0
M107
G0 F3600 X75.547 Y81.471 Z0.2
;TYPE:SKIRT
G1 F2100 E0
G1 F1800 X76.133 Y80.941 E0.02628
G1 X76.769 Y80.474 E0.05252
G1 X77.449 Y80.073 E0.07878
G1 X78.167 Y79.743 E0.10506
G1 X78.914 Y79.488 E0.13132
G1 X79.683 Y79.309 E0.15758
G1 X80.467 Y79.209 E0.18386
G1 X81.062 Y79.186 E0.20367
G1 X95.828 Y79.186 E0.69479
G1 X96.617 Y79.226 E0.72106
G1 X97.397 Y79.345 E0.74731
G1 X98.162 Y79.543 E0.77359
G1 X98.902 Y79.817 E0.79983
G1 X99.611 Y80.165 E0.8261
G1 X100.282 Y80.583 E0.8524
G1 X100.906 Y81.066 E0.87864
G1 X101.343 Y81.471 E0.89846
G1 X101.46 Y81.588 E0.90396
G1 X101.99 Y82.174 E0.93024
G1 X102.457 Y82.81 E0.95649
G1 X102.858 Y83.49 E0.98274
G1 X103.188 Y84.208 E1.00902
G1 X103.443 Y84.955 E1.03528
G1 X103.622 Y85.724 E1.06154
G1 X103.722 Y86.508 E1.08783
G1 X103.745 Y87.103 E1.10763
G1 X103.745 Y106.869 E1.76505
G1 X103.705 Y107.658 E1.79133
G1 X103.586 Y108.438 E1.81757
G1 X103.388 Y109.203 E1.84385
G1 X103.114 Y109.943 E1.8701
G1 X102.766 Y110.652 E1.89637
G1 X102.348 Y111.323 E1.92266
G1 X101.865 Y111.947 E1.9489
G1 X101.46 Y112.384 E1.96872
G1 X101.343 Y112.501 E1.97422
G1 X100.757 Y113.031 E2.0005
G1 X100.121 Y113.498 E2.02675
G1 X99.441 Y113.899 E2.053
G1 X98.723 Y114.229 E2.07929
G1 X97.976 Y114.484 E2.10554
G1 X97.207 Y114.663 E2.1318
G1 X96.423 Y114.763 E2.15809
G1 X95.828 Y114.786 E2.17789
G1 X81.062 Y114.786 E2.66901
G1 X80.273 Y114.746 E2.69529
G1 X79.493 Y114.627 E2.72153
G1 X78.728 Y114.429 E2.74781
G1 X77.988 Y114.155 E2.77406
G1 X77.279 Y113.807 E2.80033
G1 X76.608 Y113.389 E2.82662
G1 X75.984 Y112.906 E2.85287
G1 X75.547 Y112.501 E2.87268
G1 X75.43 Y112.384 E2.87819
G1 X74.9 Y111.798 E2.90447
G1 X74.433 Y111.162 E2.93071
G1 X74.032 Y110.482 E2.95697
G1 X73.702 Y109.764 E2.98325
G1 X73.447 Y109.017 E3.0095
G1 X73.268 Y108.248 E3.03576
G1 X73.168 Y107.464 E3.06205
G1 X73.145 Y106.869 E3.08185
G1 X73.145 Y87.103 E3.73927
G1 X73.185 Y86.314 E3.76555
G1 X73.304 Y85.534 E3.79179
G1 X73.502 Y84.769 E3.81808
G1 X73.776 Y84.029 E3.84432
G1 X74.124 Y83.32 E3.87059
G1 X74.542 Y82.649 E3.89688
G1 X75.025 Y82.025 E3.92313
G1 X75.43 Y81.588 E3.94295
G1 X75.547 Y81.471 E3.94845
G0 F3600 X75.829 Y81.753
G1 F1800 X76.401 Y81.239 E3.97403
G1 X77.023 Y80.786 E3.99962
G1 X77.688 Y80.4 E4.02519
G1 X78.39 Y80.085 E4.05078
G1 X79.121 Y79.845 E4.07637
G1 X79.872 Y79.682 E4.10193
G1 X80.637 Y79.598 E4.12753
G1 X81.062 Y79.586 E4.14167
G1 X95.828 Y79.586 E4.63279
G1 X96.596 Y79.626 E4.65837
G1 X97.356 Y79.745 E4.68396
G1 X98.099 Y79.943 E4.70953
G1 X98.818 Y80.217 E4.73512
G1 X99.504 Y80.564 E4.76069
G1 X100.151 Y80.98 E4.78628
G1 X100.751 Y81.461 E4.81185
G1 X101.178 Y81.87 E4.83152
G1 X101.692 Y82.442 E4.8571
G1 X102.145 Y83.064 E4.88269
G1 X102.531 Y83.729 E4.90826
G1 X102.846 Y84.431 E4.93385
G1 X103.086 Y85.162 E4.95944
G1 X103.249 Y85.913 E4.985
G1 X103.333 Y86.678 E5.0106
G1 X103.345 Y87.103 E5.02474
G1 X103.345 Y106.869 E5.68216
G1 X103.305 Y107.637 E5.70774
G1 X103.186 Y108.397 E5.73333
G1 X102.988 Y109.14 E5.7589
G1 X102.714 Y109.859 E5.78449
G1 X102.367 Y110.545 E5.81006
G1 X101.951 Y111.192 E5.83565
G1 X101.47 Y111.792 E5.86122
G1 X101.061 Y112.219 E5.88089
G1 X100.489 Y112.733 E5.90647
G1 X99.867 Y113.186 E5.93206
G1 X99.202 Y113.572 E5.95763
G1 X98.5 Y113.887 E5.98322
G1 X97.769 Y114.127 E6.00881
G1 X97.018 Y114.29 E6.03437
G1 X96.253 Y114.374 E6.05997
G1 X95.828 Y114.386 E6.07411
G1 X81.062 Y114.386 E6.56523
G1 X80.294 Y114.346 E6.59081
G1 X79.534 Y114.227 E6.6164
G1 X78.791 Y114.029 E6.64197
G1 X78.072 Y113.755 E6.66756
G1 X77.386 Y113.408 E6.69313
G1 X76.739 Y112.992 E6.71872
G1 X76.139 Y112.511 E6.74429
G1 X75.712 Y112.102 E6.76396
G1 X75.198 Y111.53 E6.78954
G1 X74.745 Y110.908 E6.81513
G1 X74.359 Y110.243 E6.8407
G1 X74.044 Y109.541 E6.86629
G1 X73.804 Y108.81 E6.89188
G1 X73.641 Y108.059 E6.91744
G1 X73.557 Y107.294 E6.94304
G1 X73.545 Y106.869 E6.95718
G1 X73.545 Y87.103 E7.6146
G1 X73.585 Y86.335 E7.64018
G1 X73.704 Y85.575 E7.66577
G1 X73.902 Y84.832 E7.69134
G1 X74.176 Y84.113 E7.71693
G1 X74.523 Y83.427 E7.7425
G1 X74.939 Y82.78 E7.76809
G1 X75.42 Y82.18 E7.79366
G1 X75.829 Y81.753 E7.81333
G0 F3600 X76.112 Y82.036
G1 F1800 X76.669 Y81.536 E7.83822
G1 X77.275 Y81.099 E7.86307
G1 X77.925 Y80.728 E7.88797
G1 X78.611 Y80.429 E7.91286
G1 X79.325 Y80.205 E7.93774
G1 X80.058 Y80.058 E7.96261
G1 X81.062 Y79.986 E7.99609
G1 X95.828 Y79.986 E8.48721
G1 X96.575 Y80.026 E8.51209
G1 X97.313 Y80.145 E8.53695
G1 X98.035 Y80.343 E8.56185
G1 X98.731 Y80.616 E8.58672
G1 X99.394 Y80.963 E8.61161
G1 X100.017 Y81.378 E8.6365
G1 X100.778 Y82.036 E8.66997
G1 X100.895 Y82.153 E8.67547
G1 X101.395 Y82.71 E8.70036
G1 X101.832 Y83.316 E8.72521
G1 X102.203 Y83.966 E8.75011
G1 X102.502 Y84.652 E8.775
G1 X102.726 Y85.366 E8.79988
G1 X102.873 Y86.099 E8.82475
G1 X102.945 Y87.103 E8.85823
G1 X102.945 Y106.869 E9.51565
G1 X102.905 Y107.616 E9.54053
G1 X102.786 Y108.354 E9.56539
G1 X102.588 Y109.076 E9.59029
G1 X102.315 Y109.772 E9.61516
G1 X101.968 Y110.435 E9.64005
G1 X101.553 Y111.058 E9.66495
G1 X100.895 Y111.819 E9.69841
G1 X100.778 Y111.936 E9.70391
G1 X100.221 Y112.436 E9.7288
G1 X99.615 Y112.873 E9.75365
G1 X98.965 Y113.244 E9.77855
G1 X98.279 Y113.543 E9.80344
G1 X97.565 Y113.767 E9.82833
G1 X96.832 Y113.914 E9.85319
G1 X95.828 Y113.986 E9.88667
G1 X81.062 Y113.986 E10.37779
G1 X80.315 Y113.946 E10.40267
G1 X79.577 Y113.827 E10.42753
G1 X78.855 Y113.629 E10.45243
G1 X78.159 Y113.356 E10.4773
G1 X77.496 Y113.009 E10.50219
G1 X76.873 Y112.594 E10.52709
G1 X76.112 Y111.936 E10.56055
G1 X75.995 Y111.819 E10.56605
G1 X75.495 Y111.262 E10.59095
G1 X75.058 Y110.656 E10.61579
G1 X74.687 Y110.006 E10.64069
G1 X74.388 Y109.32 E10.66558
G1 X74.164 Y108.606 E10.69047
G1 X74.017 Y107.873 E10.71533
G1 X73.945 Y106.869 E10.74881
G1 X73.945 Y87.103 E11.40623
G1 X73.985 Y86.356 E11.43111
G1 X74.104 Y85.618 E11.45597
G1 X74.302 Y84.896 E11.48087
G1 X74.575 Y84.2 E11.50574
G1 X74.922 Y83.537 E11.53063
G1 X75.337 Y82.914 E11.55553
G1 X75.995 Y82.153 E11.58899
G1 X76.112 Y82.036 E11.59449
G0 F3600 X76.395 Y82.319
G1 F1800 X76.936 Y81.835 E11.61863
G1 X77.527 Y81.412 E11.64281
G1 X78.161 Y81.058 E11.66696
G1 X78.83 Y80.775 E11.69112
G1 X79.526 Y80.567 E11.71528
G1 X80.241 Y80.437 E11.73945
G1 X81.062 Y80.386 E11.76681
G1 X95.828 Y80.386 E12.25793
G1 X96.553 Y80.426 E12.28208
G1 X97.27 Y80.545 E12.30625
G1 X97.969 Y80.743 E12.33042
G1 X98.642 Y81.016 E12.35457
G1 X99.281 Y81.361 E12.37872
G1 X99.878 Y81.775 E12.40289
G1 X100.495 Y82.319 E12.43025
G1 X100.612 Y82.436 E12.43575
G1 X101.096 Y82.977 E12.45989
G1 X101.519 Y83.568 E12.48407
G1 X101.873 Y84.202 E12.50822
G1 X102.156 Y84.871 E12.53238
G1 X102.364 Y85.567 E12.55654
G1 X102.494 Y86.282 E12.58071
G1 X102.545 Y87.103 E12.60807
G1 X102.545 Y106.869 E13.26549
G1 X102.505 Y107.594 E13.28964
G1 X102.386 Y108.311 E13.31381
G1 X102.188 Y109.01 E13.33798
G1 X101.915 Y109.683 E13.36213
G1 X101.57 Y110.322 E13.38629
G1 X101.156 Y110.919 E13.41045
G1 X100.612 Y111.536 E13.43781
G1 X100.495 Y111.653 E13.44331
G1 X99.954 Y112.137 E13.46745
G1 X99.363 Y112.56 E13.49163
G1 X98.729 Y112.914 E13.51578
G1 X98.06 Y113.197 E13.53994
G1 X97.364 Y113.405 E13.5641
G1 X96.649 Y113.535 E13.58827
G1 X95.828 Y113.586 E13.61563
G1 X81.062 Y113.586 E14.10675
G1 X80.337 Y113.546 E14.1309
G1 X79.62 Y113.427 E14.15507
G1 X78.921 Y113.229 E14.17924
G1 X78.248 Y112.956 E14.20339
G1 X77.609 Y112.611 E14.22754
G1 X77.012 Y112.197 E14.25171
G1 X76.395 Y111.653 E14.27907
G1 X76.278 Y111.536 E14.28457
G1 X75.794 Y110.995 E14.30871
G1 X75.371 Y110.404 E14.33289
G1 X75.017 Y109.77 E14.35704
G1 X74.734 Y109.101 E14.3812
G1 X74.526 Y108.405 E14.40536
G1 X74.396 Y107.69 E14.42953
G1 X74.345 Y106.869 E14.45689
G1 X74.345 Y87.103 E15.11431
G1 X74.385 Y86.378 E15.13846
G1 X74.504 Y85.661 E15.16263
G1 X74.702 Y84.962 E15.1868
G1 X74.975 Y84.289 E15.21095
G1 X75.32 Y83.65 E15.23511
G1 X75.734 Y83.053 E15.25927
G1 X76.278 Y82.436 E15.28663
G1 X76.395 Y82.319 E15.29213
G0 F3600 X76.678 Y82.602
G1 F1800 X77.203 Y82.133 E15.31555
G1 X77.778 Y81.727 E15.33896
G1 X78.396 Y81.389 E15.36239
G1 X79.047 Y81.122 E15.38579
G1 X79.725 Y80.932 E15.40921
G1 X80.42 Y80.819 E15.43263
G1 X81.062 Y80.786 E15.45401
G1 X95.828 Y80.786 E15.94513
G1 X96.531 Y80.826 E15.96855
G1 X97.225 Y80.945 E15.99197
G1 X97.9 Y81.143 E16.01536
G1 X98.549 Y81.415 E16.03877
G1 X99.163 Y81.76 E16.06219
G1 X99.734 Y82.171 E16.08559
G1 X100.212 Y82.602 E16.107
G1 X100.329 Y82.719 E16.1125
G1 X100.798 Y83.244 E16.13592
G1 X101.204 Y83.819 E16.15933
G1 X101.542 Y84.437 E16.18276
G1 X101.809 Y85.088 E16.20616
G1 X101.999 Y85.766 E16.22958
G1 X102.112 Y86.461 E16.253
G1 X102.145 Y87.103 E16.27438
G1 X102.145 Y106.869 E16.9318
G1 X102.105 Y107.572 E16.95522
G1 X101.986 Y108.266 E16.97864
G1 X101.788 Y108.941 E17.00203
G1 X101.516 Y109.59 E17.02544
G1 X101.171 Y110.204 E17.04886
G1 X100.76 Y110.775 E17.07226
G1 X100.329 Y111.253 E17.09367
G1 X100.212 Y111.37 E17.09917
G1 X99.687 Y111.839 E17.12259
G1 X99.112 Y112.245 E17.146
G1 X98.494 Y112.583 E17.16943
G1 X97.843 Y112.85 E17.19283
G1 X97.165 Y113.04 E17.21625
G1 X96.47 Y113.153 E17.23967
G1 X95.828 Y113.186 E17.26105
G1 X81.062 Y113.186 E17.75217
G1 X80.359 Y113.146 E17.77559
G1 X79.665 Y113.027 E17.79901
G1 X78.99 Y112.829 E17.8224
G1 X78.341 Y112.557 E17.84581
G1 X77.727 Y112.212 E17.86923
G1 X77.156 Y111.801 E17.89263
G1 X76.678 Y111.37 E17.91404
G1 X76.561 Y111.253 E17.91954
G1 X76.092 Y110.728 E17.94296
G1 X75.686 Y110.153 E17.96637
G1 X75.348 Y109.535 E17.9898
G1 X75.081 Y108.884 E18.0132
G1 X74.891 Y108.206 E18.03662
G1 X74.778 Y107.511 E18.06004
G1 X74.745 Y106.869 E18.08142
G1 X74.745 Y87.103 E18.73884
G1 X74.785 Y86.4 E18.76226
G1 X74.904 Y85.706 E18.78568
G1 X75.102 Y85.031 E18.80908
G1 X75.374 Y84.382 E18.83248
G1 X75.719 Y83.768 E18.85591
G1 X76.13 Y83.197 E18.87931
G1 X76.561 Y82.719 E18.90071
G1 X76.678 Y82.602 E18.90622
G0 F3600 X76.961 Y82.885
G1 F1800 X77.47 Y82.432 E18.92888
G1 X78.028 Y82.043 E18.9515
G1 X78.628 Y81.721 E18.97415
G1 X79.262 Y81.472 E18.99681
G1 X79.921 Y81.299 E19.01947
G1 X80.595 Y81.205 E19.0421
G1 X81.062 Y81.186 E19.05765
G1 X95.828 Y81.186 E19.54877
G1 X96.508 Y81.226 E19.57142
G1 X97.178 Y81.345 E19.59405
G1 X97.83 Y81.542 E19.61671
G1 X98.454 Y81.814 E19.63935
G1 X99.042 Y82.158 E19.66201
G1 X99.586 Y82.568 E19.68466
G1 X100.046 Y83.002 E19.7057
G1 X100.499 Y83.511 E19.72836
G1 X100.888 Y84.069 E19.75098
G1 X101.21 Y84.669 E19.77363
G1 X101.459 Y85.303 E19.79629
G1 X101.632 Y85.962 E19.81895
G1 X101.726 Y86.636 E19.84158
G1 X101.745 Y87.103 E19.85713
G1 X101.745 Y106.869 E20.51455
G1 X101.705 Y107.549 E20.5372
G1 X101.586 Y108.219 E20.55984
G1 X101.389 Y108.871 E20.58249
G1 X101.117 Y109.495 E20.60513
G1 X100.773 Y110.083 E20.62779
G1 X100.363 Y110.627 E20.65045
G1 X99.929 Y111.087 E20.67148
G1 X99.42 Y111.54 E20.69414
G1 X98.862 Y111.929 E20.71677
G1 X98.262 Y112.251 E20.73942
G1 X97.628 Y112.5 E20.76207
G1 X96.969 Y112.673 E20.78473
G1 X96.295 Y112.767 E20.80737
G1 X95.828 Y112.786 E20.82291
G1 X81.062 Y112.786 E21.31403
G1 X80.382 Y112.746 E21.33669
G1 X79.712 Y112.627 E21.35932
G1 X79.06 Y112.43 E21.38197
G1 X78.436 Y112.158 E21.40461
G1 X77.848 Y111.814 E21.42727
G1 X77.304 Y111.404 E21.44993
G1 X76.844 Y110.97 E21.47096
G1 X76.391 Y110.461 E21.49363
G1 X76.002 Y109.903 E21.51625
G1 X75.68 Y109.303 E21.5389
G1 X75.431 Y108.669 E21.56155
G1 X75.258 Y108.01 E21.58421
G1 X75.164 Y107.336 E21.60685
G1 X75.145 Y106.869 E21.62239
G1 X75.145 Y87.103 E22.27981
G1 X75.185 Y86.423 E22.30247
G1 X75.304 Y85.753 E22.3251
G1 X75.501 Y85.101 E22.34776
G1 X75.773 Y84.477 E22.3704
G1 X76.117 Y83.889 E22.39306
G1 X76.527 Y83.345 E22.41571
G1 X76.961 Y82.885 E22.43675
G0 F3600 X77.244 Y83.168
G1 F1800 X77.736 Y82.732 E22.45861
G1 X78.277 Y82.36 E22.48045
G1 X78.859 Y82.056 E22.50229
G1 X79.474 Y81.825 E22.52414
G1 X80.113 Y81.67 E22.54601
G1 X81.062 Y81.586 E22.57769
G1 X95.828 Y81.586 E23.06881
G1 X96.484 Y81.626 E23.09067
G1 X97.13 Y81.745 E23.11252
G1 X97.757 Y81.942 E23.13438
G1 X98.355 Y82.214 E23.15623
G1 X98.916 Y82.556 E23.17808
G1 X99.646 Y83.168 E23.20977
G1 X99.763 Y83.285 E23.21527
G1 X100.199 Y83.777 E23.23713
G1 X100.571 Y84.318 E23.25897
G1 X100.875 Y84.9 E23.28081
G1 X101.106 Y85.515 E23.30266
G1 X101.261 Y86.154 E23.32453
G1 X101.345 Y87.103 E23.35622
G1 X101.345 Y106.869 E24.01364
G1 X101.305 Y107.525 E24.0355
G1 X101.186 Y108.171 E24.05734
G1 X100.989 Y108.798 E24.0792
G1 X100.717 Y109.396 E24.10105
G1 X100.375 Y109.957 E24.12291
G1 X99.763 Y110.687 E24.15459
G1 X99.646 Y110.804 E24.16009
G1 X99.154 Y111.24 E24.18196
G1 X98.613 Y111.612 E24.2038
G1 X98.031 Y111.916 E24.22563
G1 X97.416 Y112.147 E24.24749
G1 X96.777 Y112.302 E24.26935
G1 X95.828 Y112.386 E24.30104
G1 X81.062 Y112.386 E24.79216
G1 X80.406 Y112.346 E24.81402
G1 X79.76 Y112.227 E24.83587
G1 X79.133 Y112.03 E24.85773
G1 X78.535 Y111.758 E24.87958
G1 X77.974 Y111.416 E24.90143
G1 X77.244 Y110.804 E24.93311
G1 X77.127 Y110.687 E24.93862
G1 X76.691 Y110.195 E24.96048
G1 X76.319 Y109.654 E24.98232
G1 X76.015 Y109.072 E25.00416
G1 X75.784 Y108.457 E25.02601
G1 X75.629 Y107.818 E25.04788
G1 X75.545 Y106.869 E25.07957
G1 X75.545 Y87.103 E25.73699
G1 X75.585 Y86.447 E25.75884
G1 X75.704 Y85.801 E25.78069
G1 X75.901 Y85.174 E25.80255
G1 X76.173 Y84.576 E25.8244
G1 X76.515 Y84.015 E25.84625
G1 X77.127 Y83.285 E25.87794
G1 X77.244 Y83.168 E25.88344
G0 F3600 X77.526 Y83.45
G1 F1800 X78.001 Y83.033 E25.90446
G1 X78.524 Y82.678 E25.92549
G1 X79.088 Y82.392 E25.94652
G1 X79.683 Y82.18 E25.96753
G1 X80.301 Y82.044 E25.98858
G1 X81.062 Y81.986 E26.01396
G1 X95.828 Y81.986 E26.50508
G1 X96.459 Y82.026 E26.52611
G1 X97.08 Y82.145 E26.54714
G1 X97.68 Y82.342 E26.56814
G1 X98.252 Y82.613 E26.58919
G1 X98.784 Y82.953 E26.61019
G1 X99.364 Y83.45 E26.6356
G1 X99.481 Y83.567 E26.6411
G1 X99.898 Y84.042 E26.66212
G1 X100.253 Y84.565 E26.68315
G1 X100.539 Y85.129 E26.70418
G1 X100.751 Y85.724 E26.72519
G1 X100.887 Y86.342 E26.74624
G1 X100.945 Y87.103 E26.77162
G1 X100.945 Y106.869 E27.42904
G1 X100.905 Y107.5 E27.45007
G1 X100.786 Y108.121 E27.4711
G1 X100.589 Y108.721 E27.4921
G1 X100.318 Y109.293 E27.51316
G1 X99.978 Y109.825 E27.53416
G1 X99.481 Y110.405 E27.55956
G1 X99.364 Y110.522 E27.56506
G1 X98.889 Y110.939 E27.58609
G1 X98.366 Y111.294 E27.60711
G1 X97.802 Y111.58 E27.62814
G1 X97.207 Y111.792 E27.64915
G1 X96.589 Y111.928 E27.6702
G1 X95.828 Y111.986 E27.69558
G1 X81.062 Y111.986 E28.1867
G1 X80.431 Y111.946 E28.20773
G1 X79.81 Y111.827 E28.22876
G1 X79.21 Y111.63 E28.24977
G1 X78.638 Y111.359 E28.27082
G1 X78.106 Y111.019 E28.29182
G1 X77.526 Y110.522 E28.31722
G1 X77.409 Y110.405 E28.32272
G1 X76.992 Y109.93 E28.34375
G1 X76.637 Y109.407 E28.36477
G1 X76.351 Y108.843 E28.3858
G1 X76.139 Y108.248 E28.40681
G1 X76.003 Y107.63 E28.42786
G1 X75.945 Y106.869 E28.45324
G1 X75.945 Y87.103 E29.11066
G1 X75.985 Y86.472 E29.13169
G1 X76.104 Y85.851 E29.15272
G1 X76.301 Y85.251 E29.17373
G1 X76.572 Y84.679 E29.19478
G1 X76.912 Y84.147 E29.21578
G1 X77.409 Y83.567 E29.24118
G1 X77.526 Y83.45 E29.24669
G0 F3600 X77.809 Y83.733
G1 F1800 X78.265 Y83.334 E29.26684
G1 X78.77 Y82.998 E29.28701
G1 X79.314 Y82.731 E29.30717
G1 X79.889 Y82.538 E29.32734
G1 X80.484 Y82.422 E29.3475
G1 X81.062 Y82.386 E29.36677
G1 X95.828 Y82.386 E29.85788
G1 X96.433 Y82.426 E29.87805
G1 X97.027 Y82.545 E29.8982
