;FLAVOR:Marlin
;TIME:13902
;Filament used: 20.328m
;Layer height: 0.3
;MINX:61.699
;MINY:13.204
;MINZ:0.24
;MAXX:188.3
;MAXY:164.752
;MAXZ:56.54
;Generated with Cura_SteamEngine 4.11.0
M82 ;absolute extrusion mode
G21 ; set units to millimeters
G90 ; use absolute positioning
M82 ; absolute extrusion mode
M104 S215 ; set extruder temp
M140 S60 ; set bed temp
M190 S60 ; wait for bed temp
M109 S215 ; wait for extruder temp
G28 W ; home all without mesh bed level
G80 ; mesh bed leveling
G92 E0.0 ; reset extruder distance position
G1 Y-3.0 F1000.0 ; go outside print area
G1 X60.0 E9.0 F1000.0 ; intro line
G1 X100.0 E21.5 F1000.0 ; intro line
G92 E0.0 ; reset extruder distance position
G92 E0
G92 E0
G1 F2100 E-0.8
;LAYER_COUNT:184
;LAYER:-5
M107
G0 F7200 X82.505 Y24.005 Z0.24
;TYPE:SUPPORT-INTERFACE
G1 F2100 E0
G1 F1350 X82.557 Y23.834 E0.01427
G1 X82.843 Y22.992 E0.08525
G1 X82.907 Y22.826 E0.09945
G1 X83.248 Y22.023 E0.16909
G1 X83.329 Y21.848 E0.18448
G1 X83.744 Y21.04 E0.25699
G1 X83.811 Y20.923 E0.26775
G1 X84.285 Y20.144 E0.34054
G1 X84.385 Y19.993 E0.355
G1 X84.901 Y19.272 E0.42578
G1 X85.009 Y19.131 E0.43995
G1 X85.586 Y18.439 E0.51187
G1 X85.682 Y18.331 E0.52341
G1 X86.164 Y17.819 E0.57954
G1 X86.321 Y17.663 E0.59721
G1 X87.017 Y17.017 E0.67301
G1 X87.156 Y16.898 E0.68761
G1 X87.847 Y16.344 E0.75831
G1 X87.986 Y16.24 E0.77217
G1 X88.701 Y15.748 E0.84145
G1 X88.885 Y15.631 E0.85886
G1 X89.641 Y15.188 E0.9288
G1 X89.783 Y15.111 E0.9417
G1 X90.615 Y14.702 E1.0157
G1 X90.728 Y14.652 E1.02556
G1 X91.578 Y14.309 E1.09873
G1 X91.751 Y14.247 E1.1134
G1 X92.589 Y13.978 E1.18365
G1 X92.753 Y13.932 E1.19725
G1 X93.625 Y13.72 E1.26889
G1 X93.787 Y13.687 E1.28208
G1 X94.68 Y13.539 E1.35434
G1 X94.857 Y13.516 E1.36859
G1 X95.751 Y13.433 E1.44026
G1 X95.893 Y13.426 E1.4516
G1 X96.634 Y13.405 E1.51078
G1 X153.395 Y13.406 E6.04169
G1 X154.396 Y13.442 E6.12164
G1 X154.519 Y13.451 E6.13149
G1 X155.436 Y13.553 E6.20514
G1 X155.611 Y13.578 E6.21925
G1 X156.5 Y13.742 E6.29141
G1 X156.623 Y13.77 E6.30148
G1 X157.517 Y14.004 E6.37525
G1 X157.68 Y14.053 E6.38883
G1 X158.522 Y14.339 E6.45982
G1 X158.688 Y14.403 E6.47402
G1 X159.491 Y14.744 E6.54366
G1 X159.68 Y14.832 E6.5603
G1 X160.474 Y15.24 E6.63156
G1 X160.591 Y15.307 E6.64232
G1 X161.37 Y15.781 E6.71511
G1 X161.521 Y15.881 E6.72957
G1 X162.235 Y16.392 E6.79965
G1 X162.383 Y16.505 E6.81452
G1 X163.075 Y17.082 E6.88644
G1 X163.183 Y17.178 E6.89797
G1 X163.695 Y17.66 E6.9541
G1 X163.814 Y17.779 E6.96754
G1 X164.497 Y18.513 E7.04757
G1 X164.616 Y18.652 E7.06218
G1 X165.17 Y19.343 E7.13288
G1 X165.274 Y19.482 E7.14673
G1 X165.766 Y20.197 E7.21601
G1 X165.883 Y20.381 E7.23342
G1 X166.323 Y21.13 E7.30276
G1 X166.396 Y21.264 E7.31494
G1 X166.801 Y22.087 E7.38816
G1 X166.862 Y22.224 E7.40013
G1 X167.204 Y23.069 E7.4729
G1 X167.263 Y23.235 E7.48696
G1 X167.534 Y24.077 E7.55757
G1 X167.581 Y24.243 E7.57134
G1 X167.792 Y25.112 E7.64272
G1 X167.826 Y25.275 E7.65602
G1 X167.974 Y26.167 E7.72819
G1 X167.998 Y26.353 E7.74316
G1 X168.079 Y27.237 E7.81402
G1 X168.088 Y27.389 E7.82618
G1 X168.109 Y28.122 E7.88471
G1 X168.109 Y56.515 E10.15117
G1 X168.151 Y57.183 E10.20459
G1 X168.28 Y57.854 E10.25914
G1 X168.493 Y58.503 E10.31366
G1 X168.785 Y59.12 E10.36815
G1 X169.153 Y59.695 E10.42264
G1 X169.591 Y60.219 E10.47716
G1 X170.091 Y60.683 E10.53161
G1 X170.647 Y61.082 E10.58624
G1 X171.247 Y61.406 E10.64067
G1 X171.883 Y61.652 E10.6951
G1 X172.55 Y61.817 E10.74995
G1 X172.983 Y61.86 E10.78468
G1 X172.983 Y61.886 E10.78676
G1 X174.387 Y61.937 E10.89891
G1 X174.51 Y61.946 E10.90875
G1 X175.427 Y62.048 E10.9824
G1 X175.602 Y62.073 E10.99651
G1 X176.491 Y62.237 E11.06867
G1 X176.614 Y62.265 E11.07874
G1 X177.508 Y62.499 E11.15251
G1 X177.671 Y62.548 E11.1661
G1 X178.513 Y62.834 E11.23708
G1 X178.679 Y62.898 E11.25128
G1 X179.482 Y63.239 E11.32092
G1 X179.671 Y63.327 E11.33756
G1 X180.465 Y63.735 E11.40882
G1 X180.582 Y63.802 E11.41958
G1 X181.361 Y64.276 E11.49237
G1 X181.512 Y64.376 E11.50683
G1 X182.226 Y64.887 E11.57692
G1 X182.374 Y65 E11.59178
G1 X183.066 Y65.577 E11.6637
G1 X183.174 Y65.673 E11.67524
G1 X183.686 Y66.155 E11.73137
G1 X183.842 Y66.312 E11.74904
G1 X184.488 Y67.008 E11.82484
G1 X184.607 Y67.147 E11.83944
G1 X185.161 Y67.838 E11.91014
G1 X185.265 Y67.977 E11.924
G1 X185.757 Y68.692 E11.99328
G1 X185.874 Y68.876 E12.01069
G1 X186.314 Y69.625 E12.08003
G1 X186.387 Y69.759 E12.09221
G1 X186.792 Y70.582 E12.16543
G1 X186.853 Y70.719 E12.1774
G1 X187.195 Y71.564 E12.25017
G1 X187.254 Y71.73 E12.26423
G1 X187.525 Y72.572 E12.33484
G1 X187.572 Y72.738 E12.34861
G1 X187.783 Y73.607 E12.41999
G1 X187.817 Y73.77 E12.43328
G1 X187.965 Y74.662 E12.50546
G1 X187.989 Y74.848 E12.52043
G1 X188.07 Y75.732 E12.59129
G1 X188.079 Y75.884 E12.60344
G1 X188.1 Y76.617 E12.66198
G1 X188.1 Y133.369 E17.19217
G1 X188.064 Y134.375 E17.27252
G1 X188.054 Y134.51 E17.28333
G1 X187.952 Y135.427 E17.35698
G1 X187.927 Y135.602 E17.37109
G1 X187.765 Y136.48 E17.44236
G1 X187.735 Y136.614 E17.45332
G1 X187.504 Y137.499 E17.52633
G1 X187.452 Y137.671 E17.54068
G1 X187.166 Y138.513 E17.61166
G1 X187.102 Y138.679 E17.62586
G1 X186.761 Y139.482 E17.6955
G1 X186.68 Y139.657 E17.71089
G1 X186.276 Y140.443 E17.78144
G1 X186.198 Y140.582 E17.79416
G1 X185.724 Y141.361 E17.86695
G1 X185.624 Y141.512 E17.88141
G1 X185.113 Y142.226 E17.9515
G1 X185 Y142.374 E17.96636
G1 X184.423 Y143.066 E18.03828
G1 X184.327 Y143.174 E18.04981
G1 X183.845 Y143.686 E18.10595
G1 X183.688 Y143.842 E18.12361
G1 X183.003 Y144.478 E18.19823
G1 X182.855 Y144.605 E18.21379
G1 X182.162 Y145.161 E18.28472
G1 X182.023 Y145.265 E18.29857
G1 X181.308 Y145.757 E18.36786
G1 X181.124 Y145.874 E18.38526
G1 X180.368 Y146.317 E18.45521
G1 X180.226 Y146.394 E18.4681
G1 X179.398 Y146.801 E18.54175
G1 X179.281 Y146.853 E18.55197
G1 X178.426 Y147.198 E18.62556
G1 X178.263 Y147.256 E18.63938
G1 X177.42 Y147.527 E18.71006
G1 X177.256 Y147.573 E18.72366
G1 X176.384 Y147.785 E18.79529
G1 X176.222 Y147.818 E18.80849
G1 X175.329 Y147.966 E18.88074
G1 X175.152 Y147.989 E18.89499
G1 X174.258 Y148.072 E18.96666
G1 X174.116 Y148.079 E18.97801
G1 X173.375 Y148.1 E19.03718
G1 X154.681 Y148.1 E20.52942
G1 X154.013 Y148.142 E20.58285
G1 X153.342 Y148.271 E20.63739
G1 X152.693 Y148.484 E20.69191
G1 X152.076 Y148.776 E20.7464
G1 X151.501 Y149.144 E20.8009
G1 X150.977 Y149.582 E20.85541
G1 X150.513 Y150.082 E20.90986
G1 X150.114 Y150.638 E20.96449
G1 X149.79 Y151.238 E21.01892
G1 X149.544 Y151.874 E21.07336
G1 X149.386 Y152.506 E21.12536
G1 X149.278 Y153.066 E21.17088
G1 X149.047 Y153.951 E21.24389
G1 X148.995 Y154.123 E21.25824
G1 X148.709 Y154.965 E21.32922
G1 X148.645 Y155.131 E21.34342
G1 X148.304 Y155.934 E21.41306
G1 X148.223 Y156.109 E21.42845
G1 X147.819 Y156.895 E21.499
G1 X147.741 Y157.034 E21.51172
G1 X147.267 Y157.813 E21.58451
G1 X147.167 Y157.964 E21.59897
G1 X146.656 Y158.678 E21.66906
G1 X146.543 Y158.826 E21.68392
G1 X145.966 Y159.518 E21.75584
G1 X145.87 Y159.626 E21.76738
G1 X145.388 Y160.138 E21.82351
G1 X145.231 Y160.294 E21.84117
G1 X144.546 Y160.93 E21.91579
G1 X144.398 Y161.057 E21.93136
G1 X143.705 Y161.613 E22.00228
G1 X143.566 Y161.717 E22.01614
G1 X142.851 Y162.209 E22.08542
G1 X142.667 Y162.326 E22.10282
G1 X141.911 Y162.769 E22.17277
G1 X141.769 Y162.846 E22.18566
G1 X140.941 Y163.253 E22.25931
G1 X140.824 Y163.305 E22.26953
G1 X139.969 Y163.65 E22.34313
G1 X139.806 Y163.708 E22.35694
G1 X138.963 Y163.979 E22.42762
G1 X138.799 Y164.025 E22.44122
G1 X137.927 Y164.237 E22.51285
G1 X137.765 Y164.27 E22.52605
G1 X136.872 Y164.418 E22.5983
G1 X136.695 Y164.441 E22.61255
G1 X135.801 Y164.524 E22.68422
G1 X135.659 Y164.531 E22.69557
G1 X134.918 Y164.552 E22.75474
G1 X115.157 Y164.551 E24.33215
G1 X114.156 Y164.515 E24.41211
G1 X114.033 Y164.506 E24.42195
G1 X113.116 Y164.404 E24.4956
G1 X112.941 Y164.379 E24.50971
G1 X112.052 Y164.215 E24.58188
G1 X111.929 Y164.187 E24.59194
G1 X111.035 Y163.953 E24.66571
G1 X110.872 Y163.904 E24.6793
G1 X110.03 Y163.618 E24.75028
G1 X109.864 Y163.554 E24.76448
G1 X109.061 Y163.213 E24.83412
G1 X108.872 Y163.125 E24.85076
G1 X108.078 Y162.717 E24.92202
G1 X107.961 Y162.65 E24.93279
G1 X107.182 Y162.176 E25.00558
G1 X107.031 Y162.076 E25.02003
G1 X106.317 Y161.565 E25.09012
G1 X106.169 Y161.452 E25.10498
G1 X105.477 Y160.875 E25.1769
G1 X105.369 Y160.779 E25.18844
G1 X104.857 Y160.297 E25.24457
G1 X104.697 Y160.136 E25.26269
G1 X104.053 Y159.442 E25.33826
G1 X103.936 Y159.305 E25.35265
G1 X103.386 Y158.619 E25.42283
G1 X103.27 Y158.463 E25.43835
G1 X102.786 Y157.76 E25.50648
G1 X102.669 Y157.576 E25.52389
G1 X102.226 Y156.82 E25.59383
G1 X102.149 Y156.678 E25.60672
G1 X101.74 Y155.846 E25.68073
G1 X101.69 Y155.733 E25.69059
G1 X101.341 Y154.869 E25.76498
G1 X101.285 Y154.711 E25.77836
G1 X101.013 Y153.863 E25.84944
G1 X100.971 Y153.713 E25.86188
G1 X100.755 Y152.825 E25.93483
G1 X100.711 Y152.595 E25.95352
G1 X100.558 Y151.941 E26.00714
G1 X100.32 Y151.302 E26.06157
G1 X100.004 Y150.697 E26.11605
G1 X99.613 Y150.136 E26.17064
G1 X99.155 Y149.63 E26.22512
G1 X98.636 Y149.186 E26.27964
G1 X98.066 Y148.81 E26.33414
G1 X97.452 Y148.51 E26.38869
G1 X96.806 Y148.289 E26.4432
G1 X96.136 Y148.152 E26.49778
G1 X95.401 Y148.1 E26.5566
G1 X76.614 Y148.099 E28.05626
G1 X75.613 Y148.063 E28.13622
G1 X75.49 Y148.054 E28.14606
G1 X74.573 Y147.952 E28.21971
G1 X74.398 Y147.927 E28.23382
G1 X73.509 Y147.763 E28.30598
G1 X73.386 Y147.735 E28.31605
G1 X72.492 Y147.501 E28.38982
G1 X72.329 Y147.452 E28.40341
G1 X71.487 Y147.166 E28.47439
G1 X71.321 Y147.102 E28.48859
G1 X70.518 Y146.761 E28.55823
G1 X70.329 Y146.673 E28.57487
G1 X69.535 Y146.265 E28.64613
G1 X69.418 Y146.198 E28.65689
G1 X68.639 Y145.724 E28.72968
G1 X68.488 Y145.624 E28.74414
G1 X67.774 Y145.113 E28.81423
G1 X67.626 Y145 E28.82909
G1 X66.934 Y144.423 E28.90101
G1 X66.826 Y144.327 E28.91255
G1 X66.314 Y143.845 E28.96868
G1 X66.154 Y143.684 E28.9868
G1 X65.51 Y142.99 E29.06237
G1 X65.393 Y142.853 E29.07675
G1 X64.843 Y142.167 E29.14694
G1 X64.727 Y142.011 E29.16246
G1 X64.243 Y141.308 E29.23059
G1 X64.126 Y141.124 E29.24799
G1 X63.683 Y140.368 E29.31794
G1 X63.606 Y140.226 E29.33083
G1 X63.197 Y139.394 E29.40484
G1 X63.147 Y139.281 E29.4147
G1 X62.798 Y138.417 E29.48908
G1 X62.742 Y138.259 E29.50247
G1 X62.47 Y137.411 E29.57355
G1 X62.428 Y137.261 E29.58599
G1 X62.212 Y136.373 E29.65894
G1 X62.183 Y136.23 E29.67059
G1 X62.033 Y135.324 E29.74389
G1 X62.011 Y135.152 E29.75773
G1 X61.928 Y134.253 E29.8298
G1 X61.921 Y134.116 E29.84075
G1 X61.9 Y133.383 E29.89929
G1 X61.9 Y76.631 E34.42948
G1 X61.936 Y75.625 E34.50983
G1 X61.946 Y75.49 E34.52064
G1 X62.047 Y74.575 E34.59412
G1 X62.073 Y74.4 E34.60824
G1 X62.235 Y73.52 E34.67967
G1 X62.265 Y73.386 E34.69063
G1 X62.496 Y72.5 E34.76372
G1 X62.548 Y72.329 E34.77798
G1 X62.834 Y71.487 E34.84897
G1 X62.898 Y71.321 E34.86317
G1 X63.239 Y70.518 E34.93281
G1 X63.32 Y70.343 E34.9482
G1 X63.735 Y69.535 E35.02071
G1 X63.802 Y69.418 E35.03147
G1 X64.276 Y68.639 E35.10426
G1 X64.376 Y68.488 E35.11872
G1 X64.892 Y67.767 E35.18949
G1 X65 Y67.626 E35.20367
G1 X65.577 Y66.934 E35.27559
G1 X65.673 Y66.826 E35.28713
G1 X66.155 Y66.314 E35.34326
G1 X66.312 Y66.158 E35.36092
G1 X67.008 Y65.512 E35.43673
G1 X67.147 Y65.393 E35.45133
G1 X67.838 Y64.839 E35.52203
G1 X67.977 Y64.735 E35.53589
G1 X68.692 Y64.243 E35.60517
G1 X68.876 Y64.126 E35.62257
G1 X69.632 Y63.683 E35.69252
G1 X69.774 Y63.606 E35.70541
G1 X70.606 Y63.197 E35.77942
G1 X70.719 Y63.147 E35.78928
G1 X71.569 Y62.804 E35.86245
G1 X71.742 Y62.742 E35.87712
G1 X72.58 Y62.473 E35.94737
G1 X72.744 Y62.427 E35.96097
G1 X73.616 Y62.215 E36.0326
G1 X73.778 Y62.182 E36.0458
G1 X74.671 Y62.034 E36.11806
G1 X74.848 Y62.011 E36.1323
G1 X75.742 Y61.928 E36.20397
G1 X75.884 Y61.921 E36.21532
G1 X77.017 Y61.889 E36.3058
G1 X77.19 Y61.86 E36.3198
G1 X77.861 Y61.731 E36.37434
G1 X78.51 Y61.518 E36.42887
G1 X79.127 Y61.226 E36.48336
G1 X79.702 Y60.858 E36.53785
G1 X80.226 Y60.42 E36.59237
G1 X80.69 Y59.92 E36.64682
G1 X81.089 Y59.364 E36.70145
G1 X81.413 Y58.764 E36.75588
G1 X81.659 Y58.128 E36.81031
G1 X81.825 Y57.459 E36.86533
G1 X81.909 Y56.52 E36.94059
G1 X81.909 Y28.136 E39.20632
G1 X81.945 Y27.13 E39.28668
G1 X81.955 Y26.995 E39.29748
G1 X82.056 Y26.08 E39.37096
G1 X82.082 Y25.905 E39.38509
G1 X82.244 Y25.025 E39.45651
G1 X82.274 Y24.891 E39.46747
G1 X82.505 Y24.005 E39.54056
G0 F7200 X83.2 Y22.136
G1 F1350 X83.2 Y148.099 E49.59547
G0 F7200 X81.6 Y148.099
G1 F1350 X81.6 Y58.28 E56.76521
G0 F7200 X80 Y60.608
G1 F1350 X80 Y148.099 E63.74912
G0 F7200 X78.4 Y148.099
G1 F1350 X78.4 Y61.554 E70.65752
G0 F7200 X76.8 Y61.895
G1 F1350 X76.8 Y148.099 E77.5387
G0 F7200 X75.2 Y148.021
G1 F1350 X75.2 Y61.978 E84.40702
G0 F7200 X73.6 Y62.218
G1 F1350 X73.6 Y147.779 E91.23687
G0 F7200 X72 Y147.34
G1 F1350 X72 Y62.659 E97.99647
G0 F7200 X70.4 Y63.298
G1 F1350 X70.4 Y146.706 E104.65446
G0 F7200 X68.8 Y145.821
G1 F1350 X68.8 Y64.174 E111.17188
G0 F7200 X67.2 Y65.35
G1 F1350 X67.2 Y144.644 E117.50147
G0 F7200 X65.6 Y143.086
G1 F1350 X65.6 Y66.908 E123.58232
G0 F7200 X64 Y69.092
G1 F1350 X64 Y140.908 E129.31499
G0 F7200 X62.4 Y137.145
G1 F1350 X62.4 Y72.868 E134.44586
G0 F7200 X79.427 Y60.487
G0 X80.333 Y59.627
G0 X80.994 Y58.57
G0 X81.339 Y57.501
G0 X84.8 Y19.413
G1 F1350 X84.8 Y148.099 E144.71813
G0 F7200 X86.4 Y148.099
G1 F1350 X86.4 Y17.589 E155.136
G0 F7200 X88 Y16.23
G1 F1350 X88 Y148.099 E165.66236
G0 F7200 X89.6 Y148.099
G1 F1350 X89.6 Y15.212 E176.26997
G0 F7200 X91.2 Y14.461
G1 F1350 X91.2 Y148.099 E186.93753
G0 F7200 X92.8 Y148.099
G1 F1350 X92.8 Y13.92 E197.64828
G0 F7200 X94.4 Y13.585
G1 F1350 X94.4 Y148.099 E208.38577
G0 F7200 X96 Y148.142
G1 F1350 X96 Y13.422 E219.1397
G0 F7200 X97.6 Y13.406
G1 F1350 X97.6 Y148.582 E229.93004
G0 F7200 X99.2 Y149.679
G1 F1350 X99.2 Y13.406 E240.80794
G0 F7200 X100.8 Y13.406
G1 F1350 X100.8 Y153.01 E251.95173
G0 F7200 X102.4 Y157.116
G1 F1350 X102.4 Y13.406 E263.42329
G0 F7200 X104 Y13.406
G1 F1350 X104 Y159.379 E275.07548
G0 F7200 X105.6 Y160.977
G1 F1350 X105.6 Y13.406 E286.85524
G0 F7200 X107.2 Y13.406
G1 F1350 X107.2 Y162.186 E298.7315
G0 F7200 X108.8 Y163.088
G1 F1350 X108.8 Y13.406 E310.67976
G0 F7200 X110.4 Y13.406
G1 F1350 X110.4 Y163.743 E322.68031
G0 F7200 X112 Y164.203
G1 F1350 X112 Y13.406 E334.71758
G0 F7200 X113.6 Y13.406
G1 F1350 X113.6 Y164.457 E346.77513
G0 F7200 X115.2 Y164.551
G1 F1350 X115.2 Y13.406 E358.84017
G0 F7200 X116.8 Y13.406
G1 F1350 X116.8 Y164.551 E370.90522
G0 F7200 X118.4 Y164.551
G1 F1350 X118.4 Y13.406 E382.97027
G0 F7200 X120 Y13.406
G1 F1350 X120 Y164.551 E395.03532
G0 F7200 X121.6 Y164.551
G1 F1350 X121.6 Y13.406 E407.10036
G0 F7200 X123.2 Y13.406
G1 F1350 X123.2 Y164.551 E419.16541
G0 F7200 X124.8 Y164.551
G1 F1350 X124.8 Y13.406 E431.23046
G0 F7200 X126.4 Y13.406
G1 F1350 X126.4 Y164.551 E443.29551
G0 F7200 X128 Y164.551
G1 F1350 X128 Y13.406 E455.36055
G0 F7200 X129.6 Y13.406
G1 F1350 X129.6 Y164.551 E467.4256
G0 F7200 X131.2 Y164.551
G1 F1350 X131.2 Y13.406 E479.49065
G0 F7200 X132.8 Y13.406
G1 F1350 X132.8 Y164.551 E491.5557
G0 F7200 X134.4 Y164.551
G1 F1350 X134.4 Y13.406 E503.62074
G0 F7200 X136 Y13.406
G1 F1350 X136 Y164.506 E515.6822
G0 F7200 X137.6 Y164.298
G1 F1350 X137.6 Y13.406 E527.72705
G0 F7200 X139.2 Y13.406
G1 F1350 X139.2 Y163.903 E539.74037
G0 F7200 X140.8 Y163.315
G1 F1350 X140.8 Y13.406 E551.70676
G0 F7200 X142.4 Y13.406
G1 F1350 X142.4 Y162.483 E563.60673
G0 F7200 X144 Y161.377
G1 F1350 X144 Y13.406 E575.41841
G0 F7200 X145.6 Y13.406
G1 F1350 X145.6 Y159.913 E587.11323
G0 F7200 X147.2 Y157.915
G1 F1350 X147.2 Y13.406 E598.64857
G0 F7200 X148.8 Y13.406
G1 F1350 X148.8 Y154.698 E609.92711
G0 F7200 X150.4 Y150.24
G1 F1350 X150.4 Y13.406 E620.84979
G0 F7200 X152 Y13.406
G1 F1350 X152 Y148.825 E631.65952
G0 F7200 X153.6 Y148.222
G1 F1350 X153.6 Y13.414 E642.42048
G0 F7200 X155.2 Y13.527
G1 F1350 X155.2 Y148.1 E653.16267
G0 F7200 X156.8 Y148.1
G1 F1350 X156.8 Y13.817 E663.88172
G0 F7200 X158.4 Y14.298
G1 F1350 X158.4 Y148.1 E674.56238
G0 F7200 X160 Y148.1
G1 F1350 X160 Y14.997 E685.18723
