;FLAVOR:Marlin
;TIME:2228
;Filament used: 2.72222m
;Layer height: 0.3
;MINX:70.713
;MINY:64.236
;MINZ:0.3
;MAXX:112.757
;MAXY:135.836
;MAXZ:54.9
;Generated with Cura_SteamEngine 4.11.0
M140 S60
M105
M190 S60
M104 S215
M105
M109 S215
M82 ;absolute extrusion mode
G21 ;metric values
G90 ;absolute positioning
M82 ;set extruder to absolute mode
M107 ;start with the fan off
G28 X0 Y0 ;move X/Y to min endstops
G28 Z0 ;move Z to min endstops
G1 Z15.0 F9000 ;move the platform down 15mm
G92 E0 ;zero the extruded length
G1 F200 E3 ;extrude 3mm of feed stock
G92 E0 ;zero the extruded length again
G1 F9000
;Put printing message on LCD screen
M117 Printing...
G92 E0
G92 E0
G1 F1500 E-6.5
;LAYER_COUNT:183
;LAYER:0
M107
G0 F3600 X88.554 Y67.582 Z0.3
;TYPE:SKIRT
G1 F1500 E0
G1 F1800 X89.037 Y66.958 E0.03937
G1 X89.58 Y66.385 E0.07875
G1 X90.179 Y65.87 E0.11816
G1 X90.827 Y65.419 E0.15755
G1 X91.518 Y65.035 E0.19699
G1 X92.243 Y64.723 E0.23637
G1 X92.996 Y64.486 E0.27575
G1 X93.77 Y64.327 E0.31517
G1 X94.555 Y64.246 E0.35455
G1 X94.957 Y64.236 E0.37461
G1 X104.957 Y64.236 E0.87351
G1 X105.746 Y64.276 E0.91292
G1 X106.526 Y64.395 E0.95229
G1 X107.291 Y64.593 E0.99171
G1 X108.031 Y64.867 E1.03108
G1 X108.74 Y65.215 E1.07048
G1 X109.411 Y65.633 E1.10992
G1 X110.035 Y66.116 E1.14929
G1 X110.608 Y66.659 E1.18868
G1 X111.123 Y67.258 E1.22809
G1 X111.574 Y67.906 E1.26748
G1 X111.958 Y68.597 E1.30691
G1 X112.27 Y69.322 E1.34629
G1 X112.507 Y70.075 E1.38568
G1 X112.666 Y70.849 E1.4251
G1 X112.747 Y71.634 E1.46447
G1 X112.757 Y72.036 E1.48453
G1 X112.757 Y128.036 E4.27838
G1 X112.717 Y128.825 E4.3178
G1 X112.598 Y129.605 E4.35716
G1 X112.4 Y130.37 E4.39659
G1 X112.126 Y131.11 E4.43595
G1 X111.778 Y131.819 E4.47536
G1 X111.36 Y132.49 E4.5148
G1 X110.877 Y133.114 E4.55417
G1 X110.334 Y133.687 E4.59355
G1 X109.735 Y134.202 E4.63296
G1 X109.087 Y134.653 E4.67235
G1 X108.396 Y135.037 E4.71179
G1 X107.671 Y135.349 E4.75117
G1 X106.918 Y135.586 E4.79055
G1 X106.144 Y135.745 E4.82997
G1 X105.359 Y135.826 E4.86934
G1 X104.957 Y135.836 E4.88941
G1 X94.957 Y135.836 E5.38831
G1 X94.168 Y135.796 E5.42772
G1 X93.388 Y135.677 E5.46709
G1 X92.623 Y135.479 E5.50651
G1 X91.883 Y135.205 E5.54588
G1 X91.174 Y134.857 E5.58528
G1 X90.503 Y134.439 E5.62472
G1 X89.879 Y133.956 E5.66409
G1 X89.306 Y133.413 E5.70347
G1 X88.791 Y132.814 E5.74288
G1 X88.34 Y132.166 E5.78227
G1 X87.956 Y131.475 E5.82171
G1 X87.644 Y130.75 E5.86109
G1 X87.407 Y129.997 E5.90047
G1 X87.248 Y129.223 E5.9399
G1 X87.167 Y128.438 E5.97927
G1 X87.157 Y128.036 E5.99933
G1 X87.157 Y117.824 E6.50881
G1 X78.513 Y117.824 E6.94006
G1 X77.724 Y117.784 E6.97947
G1 X76.944 Y117.665 E7.01884
G1 X76.179 Y117.467 E7.05826
G1 X75.439 Y117.193 E7.09763
G1 X74.73 Y116.845 E7.13703
G1 X74.059 Y116.427 E7.17647
G1 X73.435 Y115.944 E7.21584
G1 X72.862 Y115.401 E7.25523
G1 X72.347 Y114.802 E7.29464
G1 X71.896 Y114.154 E7.33402
G1 X71.512 Y113.463 E7.37346
G1 X71.2 Y112.738 E7.41284
G1 X70.963 Y111.985 E7.45223
G1 X70.804 Y111.211 E7.49165
G1 X70.723 Y110.426 E7.53102
G1 X70.713 Y110.024 E7.55108
G1 X70.713 Y90.024 E8.54888
G1 X70.753 Y89.235 E8.5883
G1 X70.872 Y88.455 E8.62766
G1 X71.07 Y87.69 E8.66709
G1 X71.344 Y86.95 E8.70646
G1 X71.692 Y86.241 E8.74586
G1 X72.11 Y85.57 E8.7853
G1 X72.593 Y84.946 E8.82467
G1 X73.136 Y84.373 E8.86405
G1 X73.735 Y83.858 E8.90346
G1 X74.383 Y83.407 E8.94285
G1 X75.074 Y83.023 E8.98229
G1 X75.799 Y82.711 E9.02167
G1 X76.552 Y82.474 E9.06105
G1 X77.326 Y82.315 E9.10047
G1 X78.111 Y82.234 E9.13984
G1 X78.513 Y82.224 E9.15991
G1 X87.157 Y82.224 E9.59116
G1 X87.157 Y72.036 E10.09944
G1 X87.197 Y71.247 E10.13885
G1 X87.316 Y70.467 E10.17822
G1 X87.514 Y69.702 E10.21764
G1 X87.788 Y68.962 E10.25701
G1 X88.136 Y68.253 E10.29641
G1 X88.554 Y67.582 E10.33585
G0 F3600 X88.951 Y67.713
G1 F1800 X89.432 Y67.113 E10.37422
G1 X89.973 Y66.566 E10.4126
G1 X90.568 Y66.078 E10.45099
G1 X91.21 Y65.655 E10.48935
G1 X91.893 Y65.3 E10.52775
G1 X92.608 Y65.019 E10.56608
G1 X93.35 Y64.813 E10.6045
G1 X94.108 Y64.685 E10.64285
G1 X94.957 Y64.636 E10.68528
G1 X104.957 Y64.636 E11.18418
G1 X105.725 Y64.676 E11.22255
G1 X106.485 Y64.795 E11.26093
G1 X107.228 Y64.993 E11.29929
G1 X107.947 Y65.267 E11.33768
G1 X108.633 Y65.614 E11.37603
G1 X109.28 Y66.03 E11.41441
G1 X109.88 Y66.511 E11.45277
G1 X110.427 Y67.052 E11.49115
G1 X110.915 Y67.647 E11.52955
G1 X111.338 Y68.289 E11.5679
G1 X111.693 Y68.972 E11.60631
G1 X111.974 Y69.687 E11.64463
G1 X112.18 Y70.429 E11.68305
G1 X112.308 Y71.187 E11.7214
G1 X112.357 Y72.036 E11.76383
G1 X112.357 Y128.036 E14.55768
G1 X112.317 Y128.804 E14.59605
G1 X112.198 Y129.564 E14.63443
G1 X112 Y130.307 E14.67279
G1 X111.726 Y131.026 E14.71118
G1 X111.379 Y131.712 E14.74953
G1 X110.963 Y132.359 E14.78791
G1 X110.482 Y132.959 E14.82627
G1 X109.941 Y133.506 E14.86466
G1 X109.346 Y133.994 E14.90305
G1 X108.704 Y134.417 E14.9414
G1 X108.021 Y134.772 E14.97981
G1 X107.306 Y135.053 E15.01814
G1 X106.564 Y135.259 E15.05655
G1 X105.806 Y135.387 E15.09491
G1 X104.957 Y135.436 E15.13733
G1 X94.957 Y135.436 E15.63624
G1 X94.189 Y135.396 E15.6746
G1 X93.429 Y135.277 E15.71298
G1 X92.686 Y135.079 E15.75134
G1 X91.967 Y134.805 E15.78973
G1 X91.281 Y134.458 E15.82809
G1 X90.634 Y134.042 E15.86646
G1 X90.034 Y133.561 E15.90483
G1 X89.487 Y133.02 E15.94321
G1 X88.999 Y132.425 E15.9816
G1 X88.576 Y131.783 E16.01996
G1 X88.221 Y131.1 E16.05836
G1 X87.94 Y130.385 E16.09669
G1 X87.734 Y129.643 E16.13511
G1 X87.606 Y128.885 E16.17346
G1 X87.557 Y128.036 E16.21589
G1 X87.557 Y117.424 E16.74532
G1 X78.513 Y117.424 E17.19653
G1 X77.745 Y117.384 E17.2349
G1 X76.985 Y117.265 E17.27327
G1 X76.242 Y117.067 E17.31164
G1 X75.523 Y116.793 E17.35002
G1 X74.837 Y116.446 E17.38838
G1 X74.19 Y116.03 E17.42675
G1 X73.59 Y115.549 E17.46512
G1 X73.043 Y115.008 E17.5035
G1 X72.555 Y114.413 E17.54189
G1 X72.132 Y113.771 E17.58025
G1 X71.777 Y113.088 E17.61865
G1 X71.496 Y112.373 E17.65698
G1 X71.29 Y111.631 E17.6954
G1 X71.162 Y110.873 E17.73375
G1 X71.113 Y110.024 E17.77618
G1 X71.113 Y90.024 E18.77398
G1 X71.153 Y89.256 E18.81235
G1 X71.272 Y88.496 E18.85073
G1 X71.47 Y87.753 E18.88909
G1 X71.744 Y87.034 E18.92748
G1 X72.091 Y86.348 E18.96583
G1 X72.507 Y85.701 E19.00421
G1 X72.988 Y85.101 E19.04257
G1 X73.529 Y84.554 E19.08096
G1 X74.124 Y84.066 E19.11935
G1 X74.766 Y83.643 E19.1577
G1 X75.449 Y83.288 E19.19611
G1 X76.164 Y83.007 E19.23443
G1 X76.906 Y82.801 E19.27285
G1 X77.664 Y82.673 E19.31121
G1 X78.513 Y82.624 E19.35363
G1 X87.557 Y82.624 E19.80484
G1 X87.557 Y72.036 E20.33308
G1 X87.597 Y71.268 E20.37145
G1 X87.716 Y70.508 E20.40982
G1 X87.914 Y69.765 E20.44819
G1 X88.188 Y69.046 E20.48657
G1 X88.535 Y68.36 E20.52493
G1 X88.951 Y67.713 E20.5633
G0 F3600 X89.349 Y67.847
G1 F1800 X89.828 Y67.273 E20.6006
G1 X90.365 Y66.752 E20.63793
G1 X90.955 Y66.293 E20.67522
G1 X91.591 Y65.898 E20.71257
G1 X92.265 Y65.574 E20.74988
G1 X92.97 Y65.324 E20.7872
G1 X93.698 Y65.15 E20.82455
G1 X94.44 Y65.055 E20.86187
G1 X94.957 Y65.036 E20.88768
G1 X104.957 Y65.036 E21.38658
G1 X105.704 Y65.076 E21.4239
G1 X106.442 Y65.195 E21.4612
G1 X107.164 Y65.393 E21.49855
G1 X107.86 Y65.666 E21.53584
G1 X108.523 Y66.013 E21.57318
G1 X109.146 Y66.428 E21.61052
G1 X109.72 Y66.907 E21.64782
G1 X110.241 Y67.444 E21.68515
G1 X110.7 Y68.034 E21.72244
G1 X111.095 Y68.67 E21.7598
G1 X111.419 Y69.344 E21.79711
G1 X111.669 Y70.049 E21.83442
G1 X111.843 Y70.777 E21.87177
G1 X111.938 Y71.519 E21.90909
G1 X111.957 Y72.036 E21.9349
G1 X111.957 Y128.036 E24.72875
G1 X111.917 Y128.783 E24.76607
G1 X111.798 Y129.521 E24.80337
G1 X111.6 Y130.243 E24.84072
G1 X111.327 Y130.939 E24.87802
G1 X110.98 Y131.602 E24.91535
G1 X110.565 Y132.225 E24.9527
G1 X110.086 Y132.799 E24.98999
G1 X109.549 Y133.32 E25.02732
G1 X108.959 Y133.779 E25.06462
G1 X108.323 Y134.174 E25.10197
G1 X107.649 Y134.498 E25.13928
G1 X106.944 Y134.748 E25.1766
G1 X106.216 Y134.922 E25.21394
G1 X105.474 Y135.017 E25.25126
G1 X104.957 Y135.036 E25.27707
G1 X94.957 Y135.036 E25.77597
G1 X94.21 Y134.996 E25.81329
G1 X93.472 Y134.877 E25.85059
G1 X92.75 Y134.679 E25.88794
G1 X92.054 Y134.406 E25.92524
G1 X91.391 Y134.059 E25.96257
G1 X90.768 Y133.644 E25.99992
G1 X90.194 Y133.165 E26.03722
G1 X89.673 Y132.628 E26.07454
G1 X89.214 Y132.038 E26.11184
G1 X88.819 Y131.402 E26.14919
G1 X88.495 Y130.728 E26.1865
G1 X88.245 Y130.023 E26.22382
G1 X88.071 Y129.295 E26.26116
G1 X87.976 Y128.553 E26.29848
G1 X87.957 Y128.036 E26.32429
G1 X87.957 Y117.024 E26.87368
G1 X78.513 Y117.024 E27.34485
G1 X77.766 Y116.984 E27.38217
G1 X77.028 Y116.865 E27.41946
G1 X76.306 Y116.667 E27.45681
G1 X75.61 Y116.394 E27.49411
G1 X74.947 Y116.047 E27.53145
G1 X74.324 Y115.632 E27.56879
G1 X73.75 Y115.153 E27.60609
G1 X73.229 Y114.616 E27.64342
G1 X72.77 Y114.026 E27.68071
G1 X72.375 Y113.39 E27.71806
G1 X72.051 Y112.716 E27.75537
G1 X71.801 Y112.011 E27.79269
G1 X71.627 Y111.283 E27.83004
G1 X71.532 Y110.541 E27.86736
G1 X71.513 Y110.024 E27.89317
G1 X71.513 Y90.024 E28.89097
G1 X71.553 Y89.277 E28.92829
G1 X71.672 Y88.539 E28.96559
G1 X71.87 Y87.817 E29.00294
G1 X72.143 Y87.121 E29.04024
G1 X72.49 Y86.458 E29.07757
G1 X72.905 Y85.835 E29.11492
G1 X73.384 Y85.261 E29.15221
G1 X73.921 Y84.74 E29.18954
G1 X74.511 Y84.281 E29.22684
G1 X75.147 Y83.886 E29.26419
G1 X75.821 Y83.562 E29.3015
G1 X76.526 Y83.312 E29.33882
G1 X77.254 Y83.138 E29.37616
G1 X77.996 Y83.043 E29.41348
G1 X78.513 Y83.024 E29.43929
G1 X87.957 Y83.024 E29.91045
G1 X87.957 Y72.036 E30.45865
G1 X87.997 Y71.289 E30.49597
G1 X88.116 Y70.551 E30.53326
G1 X88.314 Y69.829 E30.57061
G1 X88.587 Y69.133 E30.60791
G1 X88.934 Y68.47 E30.64525
G1 X89.349 Y67.847 E30.68259
G0 F3600 X89.746 Y67.986
G1 F1800 X90.222 Y67.438 E30.71881
G1 X90.756 Y66.945 E30.75507
G1 X91.341 Y66.515 E30.79129
G1 X91.97 Y66.151 E30.82754
G1 X92.635 Y65.858 E30.8638
G1 X93.328 Y65.64 E30.90004
G1 X94.04 Y65.5 E30.93625
G1 X94.957 Y65.436 E30.98211
G1 X104.957 Y65.436 E31.48101
G1 X105.682 Y65.476 E31.51723
G1 X106.399 Y65.595 E31.55349
G1 X107.098 Y65.793 E31.58974
G1 X107.771 Y66.066 E31.62597
G1 X108.41 Y66.411 E31.6622
G1 X109.007 Y66.825 E31.69845
G1 X109.555 Y67.301 E31.73466
G1 X110.048 Y67.835 E31.77092
G1 X110.478 Y68.42 E31.80714
G1 X110.842 Y69.049 E31.8434
G1 X111.135 Y69.714 E31.87965
G1 X111.353 Y70.407 E31.9159
G1 X111.493 Y71.119 E31.9521
G1 X111.557 Y72.036 E31.99796
G1 X111.557 Y128.036 E34.79181
G1 X111.517 Y128.761 E34.82804
G1 X111.398 Y129.478 E34.8643
G1 X111.2 Y130.177 E34.90054
G1 X110.927 Y130.85 E34.93678
G1 X110.582 Y131.489 E34.97301
G1 X110.168 Y132.086 E35.00925
G1 X109.692 Y132.634 E35.04546
G1 X109.158 Y133.127 E35.08172
G1 X108.573 Y133.557 E35.11795
G1 X107.944 Y133.921 E35.1542
G1 X107.279 Y134.214 E35.19046
G1 X106.586 Y134.432 E35.2267
G1 X105.874 Y134.572 E35.2629
G1 X104.957 Y134.636 E35.30876
G1 X94.957 Y134.636 E35.80767
G1 X94.232 Y134.596 E35.84389
G1 X93.515 Y134.477 E35.88015
G1 X92.816 Y134.279 E35.9164
G1 X92.143 Y134.006 E35.95263
G1 X91.504 Y133.661 E35.98886
G1 X90.907 Y133.247 E36.02511
G1 X90.359 Y132.771 E36.06132
G1 X89.866 Y132.237 E36.09758
G1 X89.436 Y131.652 E36.1338
G1 X89.072 Y131.023 E36.17006
G1 X88.779 Y130.358 E36.20631
G1 X88.561 Y129.665 E36.24256
G1 X88.421 Y128.953 E36.27876
G1 X88.357 Y128.036 E36.32462
G1 X88.357 Y116.624 E36.89397
G1 X78.513 Y116.624 E37.38508
G1 X77.788 Y116.584 E37.42131
G1 X77.071 Y116.465 E37.45757
G1 X76.372 Y116.267 E37.49382
G1 X75.699 Y115.994 E37.53005
G1 X75.06 Y115.649 E37.56628
G1 X74.463 Y115.235 E37.60252
G1 X73.915 Y114.759 E37.63874
G1 X73.422 Y114.225 E37.675
G1 X72.992 Y113.64 E37.71122
G1 X72.628 Y113.011 E37.74748
G1 X72.335 Y112.346 E37.78373
G1 X72.117 Y111.653 E37.81997
G1 X71.977 Y110.941 E37.85618
G1 X71.913 Y110.024 E37.90204
G1 X71.913 Y90.024 E38.89984
G1 X71.953 Y89.299 E38.93607
G1 X72.072 Y88.582 E38.97233
G1 X72.27 Y87.883 E39.00857
G1 X72.543 Y87.21 E39.04481
G1 X72.888 Y86.571 E39.08104
G1 X73.302 Y85.974 E39.11728
G1 X73.778 Y85.426 E39.15349
G1 X74.312 Y84.933 E39.18975
G1 X74.897 Y84.503 E39.22597
G1 X75.526 Y84.139 E39.26223
G1 X76.191 Y83.846 E39.29849
G1 X76.884 Y83.628 E39.33473
G1 X77.596 Y83.488 E39.37093
G1 X78.513 Y83.424 E39.41679
G1 X88.357 Y83.424 E39.90791
G1 X88.357 Y72.036 E40.47606
G1 X88.397 Y71.311 E40.51229
G1 X88.516 Y70.594 E40.54855
G1 X88.714 Y69.895 E40.58479
G1 X88.987 Y69.222 E40.62103
G1 X89.332 Y68.583 E40.65726
G1 X89.746 Y67.986 E40.6935
G0 F3600 X89.731 Y68.701
G1 F1800 X90.142 Y68.13 E40.7286
G1 X90.616 Y67.609 E40.76374
G1 X91.146 Y67.145 E40.79888
G1 X91.725 Y66.745 E40.83399
G1 X92.346 Y66.413 E40.86913
G1 X93 Y66.153 E40.90424
G1 X93.68 Y65.969 E40.93938
G1 X94.376 Y65.863 E40.97451
G1 X94.957 Y65.836 E41.00352
G1 X104.957 Y65.836 E41.50243
G1 X105.66 Y65.876 E41.53756
G1 X106.354 Y65.995 E41.57269
G1 X107.029 Y66.193 E41.60778
G1 X107.678 Y66.465 E41.64289
G1 X108.292 Y66.81 E41.67802
G1 X108.863 Y67.221 E41.71312
G1 X109.384 Y67.695 E41.74826
G1 X109.848 Y68.225 E41.78341
G1 X110.248 Y68.804 E41.81852
G1 X110.58 Y69.425 E41.85365
G1 X110.84 Y70.079 E41.88876
G1 X111.024 Y70.759 E41.92391
G1 X111.13 Y71.455 E41.95903
G1 X111.157 Y72.036 E41.98805
G1 X111.157 Y128.036 E44.7819
G1 X111.117 Y128.739 E44.81703
G1 X110.998 Y129.433 E44.85216
G1 X110.8 Y130.108 E44.88725
G1 X110.528 Y130.757 E44.92236
G1 X110.183 Y131.371 E44.9575
G1 X109.772 Y131.942 E44.9926
G1 X109.298 Y132.463 E45.02774
G1 X108.768 Y132.927 E45.06288
G1 X108.189 Y133.327 E45.09799
G1 X107.568 Y133.659 E45.13312
G1 X106.914 Y133.919 E45.16823
G1 X106.234 Y134.103 E45.20338
G1 X105.538 Y134.209 E45.2385
G1 X104.957 Y134.236 E45.26752
G1 X94.957 Y134.236 E45.76642
G1 X94.254 Y134.196 E45.80155
G1 X93.56 Y134.077 E45.83668
G1 X92.885 Y133.879 E45.87178
G1 X92.236 Y133.607 E45.90688
G1 X91.622 Y133.262 E45.94202
G1 X91.051 Y132.851 E45.97712
G1 X90.53 Y132.377 E46.01226
G1 X90.066 Y131.847 E46.0474
G1 X89.666 Y131.268 E46.08251
G1 X89.334 Y130.647 E46.11764
G1 X89.074 Y129.993 E46.15276
G1 X88.89 Y129.313 E46.1879
G1 X88.784 Y128.617 E46.22303
G1 X88.757 Y128.036 E46.25204
G1 X88.757 Y116.224 E46.84135
G1 X78.513 Y116.224 E47.35242
G1 X77.81 Y116.184 E47.38755
G1 X77.116 Y116.065 E47.42268
G1 X76.441 Y115.867 E47.45777
G1 X75.792 Y115.595 E47.49288
G1 X75.178 Y115.25 E47.52802
G1 X74.607 Y114.839 E47.56312
G1 X74.086 Y114.365 E47.59826
G1 X73.622 Y113.835 E47.6334
G1 X73.222 Y113.256 E47.66851
G1 X72.89 Y112.635 E47.70364
G1 X72.63 Y111.981 E47.73876
G1 X72.446 Y111.301 E47.7739
G1 X72.34 Y110.605 E47.80902
G1 X72.313 Y110.024 E47.83804
G1 X72.313 Y90.024 E48.83585
G1 X72.353 Y89.321 E48.87098
G1 X72.472 Y88.627 E48.90611
G1 X72.67 Y87.952 E48.9412
G1 X72.942 Y87.303 E48.97631
G1 X73.287 Y86.689 E49.01144
G1 X73.698 Y86.118 E49.04654
G1 X74.172 Y85.597 E49.08168
G1 X74.702 Y85.133 E49.11683
G1 X75.281 Y84.733 E49.15194
G1 X75.902 Y84.401 E49.18707
G1 X76.556 Y84.141 E49.22218
G1 X77.236 Y83.957 E49.25733
G1 X77.932 Y83.851 E49.29245
G1 X78.513 Y83.824 E49.32147
G1 X88.757 Y83.824 E49.83254
G1 X88.757 Y72.036 E50.42065
G1 X88.797 Y71.333 E50.45578
G1 X88.916 Y70.639 E50.49091
G1 X89.114 Y69.964 E50.526
G1 X89.386 Y69.315 E50.56111
G1 X89.731 Y68.701 E50.59625
G0 F3600 X90.129 Y68.822
G1 F1800 X90.539 Y68.278 E50.63023
G1 X91.01 Y67.787 E50.66418
G1 X91.535 Y67.353 E50.69816
G1 X92.107 Y66.984 E50.73212
G1 X92.719 Y66.685 E50.7661
G1 X93.361 Y66.46 E50.80004
G1 X94.026 Y66.311 E50.83404
G1 X94.957 Y66.236 E50.88064
G1 X104.957 Y66.236 E51.37954
G1 X105.637 Y66.276 E51.41352
G1 X106.307 Y66.395 E51.44747
G1 X106.959 Y66.592 E51.48146
G1 X107.583 Y66.864 E51.51542
G1 X108.171 Y67.208 E51.5494
G1 X108.715 Y67.618 E51.58339
G1 X109.206 Y68.089 E51.61733
G1 X109.64 Y68.614 E51.65132
G1 X110.009 Y69.186 E51.68528
G1 X110.308 Y69.798 E51.71926
G1 X110.533 Y70.44 E51.7532
G1 X110.682 Y71.105 E51.7872
G1 X110.757 Y72.036 E51.83379
G1 X110.757 Y128.036 E54.62765
G1 X110.717 Y128.716 E54.66163
G1 X110.598 Y129.386 E54.69558
G1 X110.401 Y130.038 E54.72956
G1 X110.129 Y130.662 E54.76352
G1 X109.785 Y131.25 E54.79751
G1 X109.375 Y131.794 E54.83149
