;FLAVOR:Marlin
;TIME:3946
;Filament used: 5.43503m
;Layer height: 0.3
;MINX:66.144
;MINY:63.565
;MINZ:0.24
;MAXX:160.666
;MAXY:149.166
;MAXZ:56.54
;Generated with Cura_SteamEngine 4.11.0
M82 ;absolute extrusion mode
G21 ; set units to millimeters
G90 ; use absolute positioning
M82 ; absolute extrusion mode
M104 S215 ; set extruder temp
M140 S60 ; set bed temp
M190 S60 ; wait for bed temp
M109 S215 ; wait for extruder temp
G28 W ; home all without mesh bed level
G80 ; mesh bed leveling
G92 E0.0 ; reset extruder distance position
G1 Y-3.0 F1000.0 ; go outside print area
G1 X60.0 E9.0 F1000.0 ; intro line
G1 X100.0 E21.5 F1000.0 ; intro line
G92 E0.0 ; reset extruder distance position
G92 E0
G92 E0
G1 F2100 E-0.8
;LAYER_COUNT:184
;LAYER:-5
M107
G0 F7200 X70.757 Y76.644 Z0.24
;TYPE:SUPPORT-INTERFACE
G1 F2100 E0
G1 F1350 X71.453 Y75.998 E0.0758
G1 X71.592 Y75.879 E0.09041
G1 X72.283 Y75.325 E0.1611
G1 X72.422 Y75.221 E0.17496
G1 X73.137 Y74.729 E0.24424
G1 X73.321 Y74.612 E0.26165
G1 X74.077 Y74.169 E0.33159
G1 X74.219 Y74.092 E0.34449
G1 X75.051 Y73.683 E0.41849
G1 X75.164 Y73.633 E0.42836
G1 X76.014 Y73.29 E0.50152
G1 X76.187 Y73.228 E0.51619
G1 X77.025 Y72.959 E0.58645
G1 X77.189 Y72.913 E0.60004
G1 X78.061 Y72.701 E0.67168
G1 X78.223 Y72.668 E0.68488
G1 X79.116 Y72.52 E0.75713
G1 X79.293 Y72.497 E0.77138
G1 X80.187 Y72.414 E0.84305
G1 X80.329 Y72.407 E0.8544
G1 X81.07 Y72.386 E0.91357
G1 X95.831 Y72.387 E2.09186
G1 X96.832 Y72.423 E2.17181
G1 X96.955 Y72.432 E2.18166
G1 X97.872 Y72.534 E2.25531
G1 X98.047 Y72.559 E2.26942
G1 X98.936 Y72.723 E2.34158
G1 X99.059 Y72.751 E2.35165
G1 X99.953 Y72.985 E2.42542
G1 X100.116 Y73.034 E2.439
G1 X100.958 Y73.32 E2.50999
G1 X101.124 Y73.384 E2.52419
G1 X101.927 Y73.725 E2.59383
G1 X102.116 Y73.813 E2.61047
G1 X102.91 Y74.221 E2.68173
G1 X103.027 Y74.288 E2.69249
G1 X103.806 Y74.762 E2.76528
G1 X103.957 Y74.862 E2.77974
G1 X104.671 Y75.373 E2.84983
G1 X104.819 Y75.486 E2.86469
G1 X105.511 Y76.063 E2.93661
G1 X105.619 Y76.159 E2.94814
G1 X106.131 Y76.641 E3.00428
G1 X106.281 Y76.791 E3.02121
G1 X106.933 Y77.494 E3.09775
G1 X107.052 Y77.633 E3.11235
G1 X107.606 Y78.324 E3.18305
G1 X107.71 Y78.463 E3.19691
G1 X108.202 Y79.178 E3.26619
G1 X108.319 Y79.362 E3.28359
G1 X108.759 Y80.111 E3.35294
G1 X108.832 Y80.245 E3.36512
G1 X109.237 Y81.068 E3.43834
G1 X109.298 Y81.205 E3.45031
G1 X109.64 Y82.05 E3.52307
G1 X109.699 Y82.216 E3.53714
G1 X109.97 Y83.058 E3.60774
G1 X110.017 Y83.224 E3.62151
G1 X110.228 Y84.093 E3.6929
G1 X110.262 Y84.256 E3.70619
G1 X110.41 Y85.148 E3.77837
G1 X110.434 Y85.334 E3.79334
G1 X110.49 Y85.945 E3.84231
G1 X110.593 Y86.608 E3.89587
G1 X110.783 Y87.263 E3.95031
G1 X111.053 Y87.891 E4.00488
G1 X111.401 Y88.479 E4.05942
G1 X111.82 Y89.018 E4.11392
G1 X112.304 Y89.499 E4.16838
G1 X112.844 Y89.916 E4.22285
G1 X113.434 Y90.262 E4.27744
G1 X114.061 Y90.53 E4.33187
G1 X114.718 Y90.718 E4.38642
G1 X115.393 Y90.82 E4.44092
G1 X116.076 Y90.836 E4.49545
G1 X116.755 Y90.767 E4.54993
G1 X117.419 Y90.613 E4.60434
G1 X118.06 Y90.375 E4.65892
G1 X118.665 Y90.059 E4.71341
G1 X119.225 Y89.669 E4.76788
G1 X119.732 Y89.211 E4.82242
G1 X120.177 Y88.693 E4.87693
G1 X120.553 Y88.123 E4.93144
G1 X120.854 Y87.511 E4.98588
G1 X121.076 Y86.865 E5.04041
G1 X121.214 Y86.195 E5.09501
G1 X121.266 Y85.454 E5.15431
G1 X121.266 Y78.497 E5.70964
G1 X121.302 Y77.491 E5.79
G1 X121.312 Y77.356 E5.80081
G1 X121.413 Y76.441 E5.87429
G1 X121.439 Y76.266 E5.88841
G1 X121.604 Y75.372 E5.96098
G1 X121.631 Y75.252 E5.9708
G1 X121.862 Y74.366 E6.04389
G1 X121.914 Y74.195 E6.05815
G1 X122.202 Y73.349 E6.12949
G1 X122.264 Y73.187 E6.14334
G1 X122.604 Y72.385 E6.21287
G1 X122.689 Y72.204 E6.22883
G1 X123.101 Y71.401 E6.30088
G1 X123.168 Y71.284 E6.31164
G1 X123.642 Y70.505 E6.38443
G1 X123.742 Y70.354 E6.39889
G1 X124.258 Y69.633 E6.46966
G1 X124.366 Y69.492 E6.48384
G1 X124.943 Y68.8 E6.55576
G1 X125.039 Y68.692 E6.56729
G1 X125.521 Y68.18 E6.62342
G1 X125.678 Y68.024 E6.64109
G1 X126.374 Y67.378 E6.71689
G1 X126.513 Y67.259 E6.7315
G1 X127.204 Y66.705 E6.8022
G1 X127.343 Y66.601 E6.81605
G1 X128.058 Y66.109 E6.88533
G1 X128.242 Y65.992 E6.90274
G1 X128.998 Y65.549 E6.97269
G1 X129.14 Y65.472 E6.98558
G1 X129.972 Y65.063 E7.05958
G1 X130.085 Y65.013 E7.06945
G1 X130.935 Y64.67 E7.14261
G1 X131.108 Y64.608 E7.15728
G1 X131.946 Y64.339 E7.22754
G1 X132.11 Y64.293 E7.24114
G1 X132.982 Y64.081 E7.31277
G1 X133.144 Y64.048 E7.32597
G1 X134.037 Y63.9 E7.39822
G1 X134.214 Y63.877 E7.41247
G1 X135.108 Y63.794 E7.48414
G1 X135.25 Y63.787 E7.49549
G1 X135.991 Y63.766 E7.55466
G1 X145.752 Y63.767 E8.33383
G1 X146.753 Y63.803 E8.41378
G1 X146.876 Y63.812 E8.42363
G1 X147.793 Y63.914 E8.49728
G1 X147.968 Y63.939 E8.51139
G1 X148.857 Y64.103 E8.58355
G1 X148.98 Y64.131 E8.59362
G1 X149.874 Y64.365 E8.66739
G1 X150.037 Y64.414 E8.68097
G1 X150.879 Y64.7 E8.75196
G1 X151.045 Y64.764 E8.76616
G1 X151.848 Y65.105 E8.8358
G1 X152.037 Y65.193 E8.85244
G1 X152.831 Y65.601 E8.9237
G1 X152.948 Y65.668 E8.93446
G1 X153.727 Y66.142 E9.00725
G1 X153.878 Y66.242 E9.02171
G1 X154.592 Y66.753 E9.0918
G1 X154.74 Y66.866 E9.10666
G1 X155.432 Y67.443 E9.17858
G1 X155.54 Y67.539 E9.19011
G1 X156.052 Y68.021 E9.24625
G1 X156.17 Y68.139 E9.25957
G1 X156.854 Y68.874 E9.33971
G1 X156.973 Y69.013 E9.35432
G1 X157.527 Y69.704 E9.42502
G1 X157.631 Y69.843 E9.43887
G1 X158.123 Y70.558 E9.50816
G1 X158.24 Y70.742 E9.52556
G1 X158.68 Y71.491 E9.5949
G1 X158.753 Y71.625 E9.60708
G1 X159.158 Y72.448 E9.6803
G1 X159.219 Y72.585 E9.69227
G1 X159.561 Y73.43 E9.76504
G1 X159.62 Y73.596 E9.7791
G1 X159.891 Y74.438 E9.84971
G1 X159.938 Y74.604 E9.86348
G1 X160.149 Y75.473 E9.93487
G1 X160.183 Y75.636 E9.94816
G1 X160.331 Y76.528 E10.02033
G1 X160.355 Y76.714 E10.0353
G1 X160.436 Y77.598 E10.10616
G1 X160.445 Y77.75 E10.11832
G1 X160.466 Y78.483 E10.17685
G1 X160.466 Y134.235 E14.62722
G1 X160.43 Y135.241 E14.70757
G1 X160.42 Y135.376 E14.71838
G1 X160.318 Y136.293 E14.79203
G1 X160.293 Y136.468 E14.80614
G1 X160.131 Y137.346 E14.87741
G1 X160.101 Y137.48 E14.88837
G1 X159.87 Y138.365 E14.96138
G1 X159.818 Y138.537 E14.97573
G1 X159.532 Y139.379 E15.04671
G1 X159.468 Y139.545 E15.06091
G1 X159.127 Y140.348 E15.13055
G1 X159.046 Y140.523 E15.14594
G1 X158.642 Y141.309 E15.21649
G1 X158.564 Y141.448 E15.22921
G1 X158.09 Y142.227 E15.302
G1 X157.99 Y142.378 E15.31646
G1 X157.479 Y143.092 E15.38655
G1 X157.366 Y143.24 E15.40141
G1 X156.789 Y143.932 E15.47333
G1 X156.693 Y144.04 E15.48487
G1 X156.211 Y144.552 E15.541
G1 X156.054 Y144.708 E15.55866
G1 X155.369 Y145.344 E15.63328
G1 X155.221 Y145.471 E15.64885
G1 X154.528 Y146.027 E15.71977
G1 X154.389 Y146.131 E15.73362
G1 X153.674 Y146.623 E15.80291
G1 X153.49 Y146.74 E15.82031
G1 X152.734 Y147.183 E15.89026
G1 X152.592 Y147.26 E15.90315
G1 X151.764 Y147.667 E15.9768
G1 X151.647 Y147.719 E15.98702
G1 X150.792 Y148.064 E16.06062
G1 X150.629 Y148.122 E16.07443
G1 X149.786 Y148.393 E16.14511
G1 X149.622 Y148.439 E16.15871
G1 X148.75 Y148.651 E16.23034
G1 X148.588 Y148.684 E16.24354
G1 X147.695 Y148.832 E16.31579
G1 X147.518 Y148.855 E16.33004
G1 X146.624 Y148.938 E16.40171
G1 X146.482 Y148.945 E16.41306
G1 X145.741 Y148.966 E16.47223
G1 X135.98 Y148.965 E17.2514
G1 X134.979 Y148.929 E17.33135
G1 X134.856 Y148.92 E17.3412
G1 X133.939 Y148.818 E17.41485
G1 X133.764 Y148.793 E17.42896
G1 X132.875 Y148.629 E17.50112
G1 X132.752 Y148.601 E17.51119
G1 X131.858 Y148.367 E17.58496
G1 X131.695 Y148.318 E17.59854
G1 X130.853 Y148.032 E17.66953
G1 X130.687 Y147.968 E17.68373
G1 X129.884 Y147.627 E17.75337
G1 X129.695 Y147.539 E17.77001
G1 X128.901 Y147.131 E17.84127
G1 X128.784 Y147.064 E17.85203
G1 X128.005 Y146.59 E17.92482
G1 X127.854 Y146.49 E17.93928
G1 X127.14 Y145.979 E18.00937
G1 X126.992 Y145.866 E18.02423
G1 X126.3 Y145.289 E18.09615
G1 X126.192 Y145.193 E18.10769
G1 X125.68 Y144.711 E18.16382
G1 X125.52 Y144.55 E18.18194
G1 X124.876 Y143.856 E18.25751
G1 X124.759 Y143.719 E18.27189
G1 X124.209 Y143.033 E18.34208
G1 X124.093 Y142.877 E18.3576
G1 X123.609 Y142.174 E18.42573
G1 X123.492 Y141.99 E18.44313
G1 X123.049 Y141.234 E18.51308
G1 X122.972 Y141.092 E18.52597
G1 X122.563 Y140.26 E18.59998
G1 X122.513 Y140.147 E18.60984
G1 X122.164 Y139.283 E18.68422
G1 X122.108 Y139.125 E18.6976
G1 X121.836 Y138.277 E18.76869
G1 X121.794 Y138.127 E18.78112
G1 X121.578 Y137.239 E18.85408
G1 X121.549 Y137.096 E18.86572
G1 X121.399 Y136.19 E18.93903
G1 X121.377 Y136.018 E18.95287
G1 X121.294 Y135.119 E19.02494
G1 X121.287 Y134.982 E19.03589
G1 X121.266 Y134.249 E19.09442
G1 X121.266 Y108.581 E21.14335
G1 X121.224 Y107.913 E21.19678
G1 X121.095 Y107.242 E21.25132
G1 X120.882 Y106.593 E21.30585
G1 X120.59 Y105.976 E21.36034
G1 X120.222 Y105.401 E21.41483
G1 X119.784 Y104.877 E21.46935
G1 X119.284 Y104.413 E21.5238
G1 X118.728 Y104.014 E21.57843
G1 X118.128 Y103.69 E21.63286
G1 X117.492 Y103.444 E21.68729
G1 X116.828 Y103.28 E21.74189
G1 X116.15 Y103.201 E21.79637
G1 X115.467 Y103.208 E21.8509
G1 X114.791 Y103.301 E21.90537
G1 X114.132 Y103.479 E21.95986
G1 X113.501 Y103.739 E22.01433
G1 X112.906 Y104.076 E22.06892
G1 X112.36 Y104.486 E22.12342
G1 X111.869 Y104.96 E22.1779
G1 X111.444 Y105.494 E22.23238
G1 X111.087 Y106.077 E22.28695
G1 X110.809 Y106.699 E22.34133
G1 X110.61 Y107.352 E22.39582
G1 X110.5 Y107.99 E22.4475
G1 X110.397 Y108.913 E22.52164
G1 X110.372 Y109.088 E22.53575
G1 X110.21 Y109.966 E22.60702
G1 X110.18 Y110.1 E22.61798
G1 X109.949 Y110.985 E22.69099
G1 X109.897 Y111.157 E22.70533
G1 X109.611 Y111.999 E22.77632
G1 X109.547 Y112.165 E22.79052
G1 X109.206 Y112.968 E22.86016
G1 X109.125 Y113.143 E22.87555
G1 X108.721 Y113.929 E22.9461
G1 X108.643 Y114.068 E22.95882
G1 X108.169 Y114.847 E23.03161
G1 X108.069 Y114.998 E23.04607
G1 X107.558 Y115.712 E23.11615
G1 X107.445 Y115.86 E23.13102
G1 X106.868 Y116.552 E23.20294
G1 X106.772 Y116.66 E23.21447
G1 X106.29 Y117.172 E23.2706
G1 X106.133 Y117.328 E23.28827
G1 X105.448 Y117.964 E23.36289
G1 X105.3 Y118.091 E23.37845
G1 X104.607 Y118.647 E23.44937
G1 X104.468 Y118.751 E23.46323
G1 X103.753 Y119.243 E23.53251
G1 X103.569 Y119.36 E23.54992
G1 X102.813 Y119.803 E23.61986
G1 X102.671 Y119.88 E23.63276
G1 X101.843 Y120.287 E23.70641
G1 X101.726 Y120.339 E23.71663
G1 X100.871 Y120.684 E23.79022
G1 X100.708 Y120.742 E23.80403
G1 X99.865 Y121.013 E23.87472
G1 X99.701 Y121.059 E23.88831
G1 X98.829 Y121.271 E23.95995
G1 X98.667 Y121.304 E23.97314
G1 X97.774 Y121.452 E24.0454
G1 X97.597 Y121.475 E24.05965
G1 X96.703 Y121.558 E24.13132
G1 X96.561 Y121.565 E24.14267
G1 X95.82 Y121.586 E24.20184
G1 X81.059 Y121.585 E25.38013
G1 X80.058 Y121.549 E25.46008
G1 X79.935 Y121.54 E25.46993
G1 X79.018 Y121.438 E25.54358
G1 X78.843 Y121.413 E25.55769
G1 X77.954 Y121.249 E25.62985
G1 X77.831 Y121.221 E25.63992
G1 X76.937 Y120.987 E25.71369
G1 X76.774 Y120.938 E25.72727
G1 X75.932 Y120.652 E25.79826
G1 X75.766 Y120.588 E25.81246
G1 X74.963 Y120.247 E25.8821
G1 X74.774 Y120.159 E25.89874
G1 X73.98 Y119.751 E25.97
G1 X73.863 Y119.684 E25.98076
G1 X73.084 Y119.21 E26.05355
G1 X72.933 Y119.11 E26.06801
G1 X72.219 Y118.599 E26.13809
G1 X72.071 Y118.486 E26.15296
G1 X71.379 Y117.909 E26.22488
G1 X71.271 Y117.813 E26.23641
G1 X70.759 Y117.331 E26.29255
G1 X70.599 Y117.17 E26.31066
G1 X69.955 Y116.476 E26.38624
G1 X69.838 Y116.339 E26.40062
G1 X69.288 Y115.653 E26.47081
G1 X69.172 Y115.497 E26.48632
G1 X68.688 Y114.794 E26.55445
G1 X68.571 Y114.61 E26.57186
G1 X68.128 Y113.854 E26.64181
G1 X68.051 Y113.712 E26.6547
G1 X67.642 Y112.88 E26.7287
G1 X67.592 Y112.767 E26.73857
G1 X67.243 Y111.903 E26.81295
G1 X67.187 Y111.745 E26.82633
G1 X66.915 Y110.897 E26.89742
G1 X66.873 Y110.747 E26.90985
G1 X66.657 Y109.859 E26.9828
G1 X66.628 Y109.716 E26.99445
G1 X66.478 Y108.81 E27.06776
G1 X66.456 Y108.638 E27.0816
G1 X66.373 Y107.739 E27.15367
G1 X66.366 Y107.602 E27.16462
G1 X66.345 Y106.869 E27.22315
G1 X66.345 Y87.117 E28.79984
G1 X66.381 Y86.111 E28.8802
G1 X66.391 Y85.976 E28.891
G1 X66.492 Y85.061 E28.96448
G1 X66.518 Y84.886 E28.97861
G1 X66.68 Y84.006 E29.05003
G1 X66.71 Y83.872 E29.06099
G1 X66.941 Y82.986 E29.13408
G1 X66.993 Y82.815 E29.14835
G1 X67.279 Y81.973 E29.21933
G1 X67.343 Y81.807 E29.23353
G1 X67.684 Y81.004 E29.30317
G1 X67.765 Y80.829 E29.31857
G1 X68.18 Y80.021 E29.39108
G1 X68.247 Y79.904 E29.40184
G1 X68.721 Y79.125 E29.47463
G1 X68.821 Y78.974 E29.48908
G1 X69.337 Y78.253 E29.55986
G1 X69.445 Y78.112 E29.57404
G1 X70.022 Y77.42 E29.64596
G1 X70.118 Y77.312 E29.65749
G1 X70.6 Y76.8 E29.71362
G1 X70.757 Y76.644 E29.73129
G0 F7200 X70.4 Y77.012
G1 F1350 X70.4 Y116.955 E32.91971
G0 F7200 X72 Y118.426
G1 F1350 X72 Y75.551 E36.34218
G0 F7200 X73.6 Y74.448
G1 F1350 X73.6 Y119.523 E39.94026
G0 F7200 X75.2 Y120.347
G1 F1350 X75.2 Y73.618 E43.67037
G0 F7200 X76.8 Y73.031
G1 F1350 X76.8 Y120.945 E47.49508
G0 F7200 X78.4 Y121.331
G1 F1350 X78.4 Y72.638 E51.38196
G0 F7200 X80 Y72.431
G1 F1350 X80 Y121.544 E55.30237
G0 F7200 X81.6 Y121.585
G1 F1350 X81.6 Y72.387 E59.22957
G0 F7200 X83.2 Y72.387
G1 F1350 X83.2 Y121.585 E63.15677
G0 F7200 X84.8 Y121.585
G1 F1350 X84.8 Y72.387 E67.08397
G0 F7200 X86.4 Y72.387
G1 F1350 X86.4 Y121.585 E71.01116
G0 F7200 X88 Y121.585
G1 F1350 X88 Y72.387 E74.93836
G0 F7200 X89.6 Y72.387
G1 F1350 X89.6 Y121.585 E78.86556
G0 F7200 X91.2 Y121.585
G1 F1350 X91.2 Y72.387 E82.79275
G0 F7200 X92.8 Y72.387
G1 F1350 X92.8 Y121.585 E86.71995
G0 F7200 X94.4 Y121.585
G1 F1350 X94.4 Y72.387 E90.64715
G0 F7200 X96 Y72.394
G1 F1350 X96 Y121.581 E94.57347
G0 F7200 X97.6 Y121.475
G1 F1350 X97.6 Y72.504 E98.48254
G0 F7200 X99.2 Y72.788
G1 F1350 X99.2 Y121.181 E102.34548
G0 F7200 X100.8 Y120.71
G1 F1350 X100.8 Y73.267 E106.13259
G0 F7200 X102.4 Y73.959
G1 F1350 X102.4 Y120.014 E109.8089
G0 F7200 X104 Y119.074
G1 F1350 X104 Y74.893 E113.33562
G0 F7200 X105.6 Y76.143
G1 F1350 X105.6 Y117.823 E116.66269
G0 F7200 X107.2 Y116.154
G1 F1350 X107.2 Y77.818 E119.72284
G0 F7200 X108.8 Y80.187
G1 F1350 X108.8 Y113.776 E122.40406
G0 F7200 X110.4 Y108.887
G1 F1350 X110.4 Y85.088 E124.3038
G0 F7200 X112 Y89.197
G1 F1350 X112 Y104.834 E125.55201
G0 F7200 X113.6 Y103.699
G1 F1350 X113.6 Y90.333 E126.61894
G0 F7200 X115.2 Y90.791
G1 F1350 X115.2 Y103.245 E127.61307
G0 F7200 X116.8 Y103.276
G1 F1350 X116.8 Y90.756 E128.61247
G0 F7200 X118.4 Y90.197
G1 F1350 X118.4 Y103.836 E129.7012
G0 F7200 X120 Y105.135
G1 F1350 X120 Y88.899 E130.99723
G0 F7200 X120.631 Y86.741
G0 X121.6 Y75.393
G1 F1350 X121.6 Y137.329 E135.94123
G0 F7200 X123.2 Y141.491
G1 F1350 X123.2 Y71.231 E141.54968
G0 F7200 X124.8 Y68.971
G1 F1350 X124.8 Y143.767 E147.52022
G0 F7200 X126.4 Y145.372
G1 F1350 X126.4 Y67.355 E153.74788
G0 F7200 X128 Y66.148
G1 F1350 X128 Y146.586 E160.16879
G0 F7200 X129.6 Y147.49
G1 F1350 X129.6 Y65.245 E166.73394
G0 F7200 X131.2 Y64.578
G1 F1350 X131.2 Y148.149 E173.40494
G0 F7200 X132.8 Y148.611
G1 F1350 X132.8 Y64.125 E180.14897
G0 F7200 X134.4 Y63.859
G1 F1350 X134.4 Y148.869 E186.93484
G0 F7200 X136 Y148.965
G1 F1350 X136 Y63.767 E193.73571
G0 F7200 X137.6 Y63.767
G1 F1350 X137.6 Y148.965 E200.53658
G0 F7200 X139.2 Y148.965
G1 F1350 X139.2 Y63.767 E207.33746
G0 F7200 X140.8 Y63.767
G1 F1350 X140.8 Y148.965 E214.13833
G0 F7200 X142.4 Y148.965
G1 F1350 X142.4 Y63.767 E220.9392
G0 F7200 X144 Y63.767
G1 F1350 X144 Y148.965 E227.74008
G0 F7200 X145.6 Y148.965
G1 F1350 X145.6 Y63.767 E234.54095
G0 F7200 X147.2 Y63.849
G1 F1350 X147.2 Y148.885 E241.32889
G0 F7200 X148.8 Y148.639
G1 F1350 X148.8 Y64.093 E248.07772
G0 F7200 X150.4 Y64.538
G1 F1350 X150.4 Y148.196 E254.75566
G0 F7200 X152 Y147.551
G1 F1350 X152 Y65.176 E261.33119
G0 F7200 X153.6 Y66.065
G1 F1350 X153.6 Y146.671 E267.76551
G0 F7200 X155.2 Y145.488
G1 F1350 X155.2 Y67.25 E274.0108
G0 F7200 X156.8 Y68.816
G1 F1350 X156.8 Y143.919 E280.00585
G0 F7200 X158.4 Y141.718
G1 F1350 X158.4 Y71.015 E285.64967
G0 F7200 X160 Y74.86
G1 F1350 X160 Y137.867 E290.67916
G0 F7200 X118.485 Y104.406
G0 X117.354 Y103.884
G0 X116.128 Y103.662
G0 X115.155 Y103.715
G0 X68.8 Y114.956
G1 F1350 X68.8 Y79.005 E293.54893
G0 F7200 X67.2 Y82.205
M104 S215
