;FLAVOR:Marlin
;TIME:12627
;Filament used: 19.0678m
;Layer height: 0.3
;MINX:61.699
;MINY:13.204
;MINZ:0.24
;MAXX:188.3
;MAXY:148.3
;MAXZ:38.54
;Generated with Cura_SteamEngine 4.11.0
M82 ;absolute extrusion mode
G21 ; set units to millimeters
G90 ; use absolute positioning
M82 ; absolute extrusion mode
M104 S215 ; set extruder temp
M140 S60 ; set bed temp
M190 S60 ; wait for bed temp
M109 S215 ; wait for extruder temp
G28 W ; home all without mesh bed level
G80 ; mesh bed leveling
G92 E0.0 ; reset extruder distance position
G1 Y-3.0 F1000.0 ; go outside print area
G1 X60.0 E9.0 F1000.0 ; intro line
G1 X100.0 E21.5 F1000.0 ; intro line
G92 E0.0 ; reset extruder distance position
G92 E0
G92 E0
G1 F2100 E-0.8
;LAYER_COUNT:124
;LAYER:-5
M107
G0 F7200 X82.505 Y24.005 Z0.24
;TYPE:SUPPORT-INTERFACE
G1 F2100 E0
G1 F1350 X82.557 Y23.834 E0.01427
G1 X82.843 Y22.992 E0.08525
G1 X82.907 Y22.826 E0.09945
G1 X83.248 Y22.023 E0.16909
G1 X83.329 Y21.848 E0.18448
G1 X83.744 Y21.04 E0.25699
G1 X83.811 Y20.923 E0.26775
G1 X84.285 Y20.144 E0.34054
G1 X84.385 Y19.993 E0.355
G1 X84.901 Y19.272 E0.42578
G1 X85.009 Y19.131 E0.43995
G1 X85.586 Y18.439 E0.51187
G1 X85.682 Y18.331 E0.52341
G1 X86.164 Y17.819 E0.57954
G1 X86.321 Y17.663 E0.59721
G1 X87.017 Y17.017 E0.67301
G1 X87.156 Y16.898 E0.68761
G1 X87.847 Y16.344 E0.75831
G1 X87.986 Y16.24 E0.77217
G1 X88.701 Y15.748 E0.84145
G1 X88.885 Y15.631 E0.85886
G1 X89.641 Y15.188 E0.9288
G1 X89.783 Y15.111 E0.9417
G1 X90.615 Y14.702 E1.0157
G1 X90.728 Y14.652 E1.02556
G1 X91.578 Y14.309 E1.09873
G1 X91.751 Y14.247 E1.1134
G1 X92.589 Y13.978 E1.18365
G1 X92.753 Y13.932 E1.19725
G1 X93.625 Y13.72 E1.26889
G1 X93.787 Y13.687 E1.28208
G1 X94.68 Y13.539 E1.35434
G1 X94.857 Y13.516 E1.36859
G1 X95.751 Y13.433 E1.44026
G1 X95.893 Y13.426 E1.4516
G1 X96.634 Y13.405 E1.51078
G1 X153.395 Y13.406 E6.04169
G1 X154.396 Y13.442 E6.12164
G1 X154.519 Y13.451 E6.13149
G1 X155.436 Y13.553 E6.20514
G1 X155.611 Y13.578 E6.21925
G1 X156.5 Y13.742 E6.29141
G1 X156.623 Y13.77 E6.30148
G1 X157.517 Y14.004 E6.37525
G1 X157.68 Y14.053 E6.38883
G1 X158.522 Y14.339 E6.45982
G1 X158.688 Y14.403 E6.47402
G1 X159.491 Y14.744 E6.54366
G1 X159.68 Y14.832 E6.5603
G1 X160.474 Y15.24 E6.63156
G1 X160.591 Y15.307 E6.64232
G1 X161.37 Y15.781 E6.71511
G1 X161.521 Y15.881 E6.72957
G1 X162.235 Y16.392 E6.79965
G1 X162.383 Y16.505 E6.81452
G1 X163.075 Y17.082 E6.88644
G1 X163.183 Y17.178 E6.89797
G1 X163.695 Y17.66 E6.9541
G1 X163.814 Y17.779 E6.96754
G1 X164.497 Y18.513 E7.04757
G1 X164.616 Y18.652 E7.06218
G1 X165.17 Y19.343 E7.13288
G1 X165.274 Y19.482 E7.14673
G1 X165.766 Y20.197 E7.21601
G1 X165.883 Y20.381 E7.23342
G1 X166.323 Y21.13 E7.30276
G1 X166.396 Y21.264 E7.31494
G1 X166.801 Y22.087 E7.38816
G1 X166.862 Y22.224 E7.40013
G1 X167.204 Y23.069 E7.4729
G1 X167.263 Y23.235 E7.48696
G1 X167.534 Y24.077 E7.55757
G1 X167.581 Y24.243 E7.57134
G1 X167.792 Y25.112 E7.64272
G1 X167.826 Y25.275 E7.65602
G1 X167.974 Y26.167 E7.72819
G1 X167.998 Y26.353 E7.74316
G1 X168.079 Y27.237 E7.81402
G1 X168.088 Y27.389 E7.82618
G1 X168.109 Y28.122 E7.88471
G1 X168.109 Y56.515 E10.15117
G1 X168.151 Y57.183 E10.20459
G1 X168.28 Y57.854 E10.25914
G1 X168.493 Y58.503 E10.31366
G1 X168.785 Y59.12 E10.36815
G1 X169.153 Y59.695 E10.42264
G1 X169.591 Y60.219 E10.47716
G1 X170.091 Y60.683 E10.53161
G1 X170.647 Y61.082 E10.58624
G1 X171.247 Y61.406 E10.64067
G1 X171.883 Y61.652 E10.6951
G1 X172.55 Y61.817 E10.74995
G1 X172.983 Y61.86 E10.78468
G1 X172.983 Y61.886 E10.78676
G1 X174.387 Y61.937 E10.89891
G1 X174.51 Y61.946 E10.90875
G1 X175.427 Y62.048 E10.9824
G1 X175.602 Y62.073 E10.99651
G1 X176.491 Y62.237 E11.06867
G1 X176.614 Y62.265 E11.07874
G1 X177.508 Y62.499 E11.15251
G1 X177.671 Y62.548 E11.1661
G1 X178.513 Y62.834 E11.23708
G1 X178.679 Y62.898 E11.25128
G1 X179.482 Y63.239 E11.32092
G1 X179.671 Y63.327 E11.33756
G1 X180.465 Y63.735 E11.40882
G1 X180.582 Y63.802 E11.41958
G1 X181.361 Y64.276 E11.49237
G1 X181.512 Y64.376 E11.50683
G1 X182.226 Y64.887 E11.57692
G1 X182.374 Y65 E11.59178
G1 X183.066 Y65.577 E11.6637
G1 X183.174 Y65.673 E11.67524
G1 X183.686 Y66.155 E11.73137
G1 X183.842 Y66.312 E11.74904
G1 X184.488 Y67.008 E11.82484
G1 X184.607 Y67.147 E11.83944
G1 X185.161 Y67.838 E11.91014
G1 X185.265 Y67.977 E11.924
G1 X185.757 Y68.692 E11.99328
G1 X185.874 Y68.876 E12.01069
G1 X186.314 Y69.625 E12.08003
G1 X186.387 Y69.759 E12.09221
G1 X186.792 Y70.582 E12.16543
G1 X186.853 Y70.719 E12.1774
G1 X187.195 Y71.564 E12.25017
G1 X187.254 Y71.73 E12.26423
G1 X187.525 Y72.572 E12.33484
G1 X187.572 Y72.738 E12.34861
G1 X187.783 Y73.607 E12.41999
G1 X187.817 Y73.77 E12.43328
G1 X187.965 Y74.662 E12.50546
G1 X187.989 Y74.848 E12.52043
G1 X188.07 Y75.732 E12.59129
G1 X188.079 Y75.884 E12.60344
G1 X188.1 Y76.617 E12.66198
G1 X188.1 Y133.369 E17.19217
G1 X188.064 Y134.375 E17.27252
G1 X188.054 Y134.51 E17.28333
G1 X187.952 Y135.427 E17.35698
G1 X187.927 Y135.602 E17.37109
G1 X187.765 Y136.48 E17.44236
G1 X187.735 Y136.614 E17.45332
G1 X187.504 Y137.499 E17.52633
G1 X187.452 Y137.671 E17.54068
G1 X187.166 Y138.513 E17.61166
G1 X187.102 Y138.679 E17.62586
G1 X186.761 Y139.482 E17.6955
G1 X186.68 Y139.657 E17.71089
G1 X186.276 Y140.443 E17.78144
G1 X186.198 Y140.582 E17.79416
G1 X185.724 Y141.361 E17.86695
G1 X185.624 Y141.512 E17.88141
G1 X185.113 Y142.226 E17.9515
G1 X185 Y142.374 E17.96636
G1 X184.423 Y143.066 E18.03828
G1 X184.327 Y143.174 E18.04981
G1 X183.845 Y143.686 E18.10595
G1 X183.688 Y143.842 E18.12361
G1 X183.003 Y144.478 E18.19823
G1 X182.855 Y144.605 E18.21379
G1 X182.162 Y145.161 E18.28472
G1 X182.023 Y145.265 E18.29857
G1 X181.308 Y145.757 E18.36786
G1 X181.124 Y145.874 E18.38526
G1 X180.368 Y146.317 E18.45521
G1 X180.226 Y146.394 E18.4681
G1 X179.398 Y146.801 E18.54175
G1 X179.281 Y146.853 E18.55197
G1 X178.426 Y147.198 E18.62556
G1 X178.263 Y147.256 E18.63938
G1 X177.42 Y147.527 E18.71006
G1 X177.256 Y147.573 E18.72366
G1 X176.384 Y147.785 E18.79529
G1 X176.222 Y147.818 E18.80849
G1 X175.329 Y147.966 E18.88074
G1 X175.152 Y147.989 E18.89499
G1 X174.258 Y148.072 E18.96666
G1 X174.116 Y148.079 E18.97801
G1 X173.375 Y148.1 E19.03718
G1 X76.614 Y148.099 E26.76106
G1 X75.613 Y148.063 E26.84102
G1 X75.49 Y148.054 E26.85086
G1 X74.573 Y147.952 E26.92451
G1 X74.398 Y147.927 E26.93863
G1 X73.509 Y147.763 E27.01079
G1 X73.386 Y147.735 E27.02086
G1 X72.492 Y147.501 E27.09462
G1 X72.329 Y147.452 E27.10821
G1 X71.487 Y147.166 E27.17919
G1 X71.321 Y147.102 E27.19339
G1 X70.518 Y146.761 E27.26303
G1 X70.329 Y146.673 E27.27968
G1 X69.535 Y146.265 E27.35093
G1 X69.418 Y146.198 E27.3617
G1 X68.639 Y145.724 E27.43449
G1 X68.488 Y145.624 E27.44894
G1 X67.774 Y145.113 E27.51903
G1 X67.626 Y145 E27.53389
G1 X66.934 Y144.423 E27.60582
G1 X66.826 Y144.327 E27.61735
G1 X66.314 Y143.845 E27.67348
G1 X66.154 Y143.684 E27.6916
G1 X65.51 Y142.99 E27.76718
G1 X65.393 Y142.853 E27.78156
G1 X64.843 Y142.167 E27.85174
G1 X64.727 Y142.011 E27.86726
G1 X64.243 Y141.308 E27.93539
G1 X64.126 Y141.124 E27.9528
G1 X63.683 Y140.368 E28.02274
G1 X63.606 Y140.226 E28.03564
G1 X63.197 Y139.394 E28.10964
G1 X63.147 Y139.281 E28.1195
G1 X62.798 Y138.417 E28.19389
G1 X62.742 Y138.259 E28.20727
G1 X62.47 Y137.411 E28.27836
G1 X62.428 Y137.261 E28.29079
G1 X62.212 Y136.373 E28.36374
G1 X62.183 Y136.23 E28.37539
G1 X62.033 Y135.324 E28.44869
G1 X62.011 Y135.152 E28.46253
G1 X61.928 Y134.253 E28.5346
G1 X61.921 Y134.116 E28.54555
G1 X61.9 Y133.383 E28.60409
G1 X61.9 Y76.631 E33.13428
G1 X61.936 Y75.625 E33.21463
G1 X61.946 Y75.49 E33.22544
G1 X62.047 Y74.575 E33.29892
G1 X62.073 Y74.4 E33.31304
G1 X62.235 Y73.52 E33.38447
G1 X62.265 Y73.386 E33.39543
G1 X62.496 Y72.5 E33.46852
G1 X62.548 Y72.329 E33.48279
G1 X62.834 Y71.487 E33.55377
G1 X62.898 Y71.321 E33.56797
G1 X63.239 Y70.518 E33.63761
G1 X63.32 Y70.343 E33.653
G1 X63.735 Y69.535 E33.72551
G1 X63.802 Y69.418 E33.73627
G1 X64.276 Y68.639 E33.80906
G1 X64.376 Y68.488 E33.82352
G1 X64.892 Y67.767 E33.89429
G1 X65 Y67.626 E33.90847
G1 X65.577 Y66.934 E33.98039
G1 X65.673 Y66.826 E33.99193
G1 X66.155 Y66.314 E34.04806
G1 X66.312 Y66.158 E34.06573
G1 X67.008 Y65.512 E34.14153
G1 X67.147 Y65.393 E34.15613
G1 X67.838 Y64.839 E34.22683
G1 X67.977 Y64.735 E34.24069
G1 X68.692 Y64.243 E34.30997
G1 X68.876 Y64.126 E34.32738
G1 X69.632 Y63.683 E34.39732
G1 X69.774 Y63.606 E34.41021
G1 X70.606 Y63.197 E34.48422
G1 X70.719 Y63.147 E34.49408
G1 X71.569 Y62.804 E34.56725
G1 X71.742 Y62.742 E34.58192
G1 X72.58 Y62.473 E34.65217
G1 X72.744 Y62.427 E34.66577
G1 X73.616 Y62.215 E34.7374
G1 X73.778 Y62.182 E34.7506
G1 X74.671 Y62.034 E34.82286
G1 X74.848 Y62.011 E34.83711
G1 X75.742 Y61.928 E34.90877
G1 X75.884 Y61.921 E34.92012
G1 X77.017 Y61.889 E35.0106
G1 X77.19 Y61.86 E35.0246
G1 X77.861 Y61.731 E35.07915
G1 X78.51 Y61.518 E35.13367
G1 X79.127 Y61.226 E35.18816
G1 X79.702 Y60.858 E35.24265
G1 X80.226 Y60.42 E35.29717
G1 X80.69 Y59.92 E35.35162
G1 X81.089 Y59.364 E35.40625
G1 X81.413 Y58.764 E35.46068
G1 X81.659 Y58.128 E35.51511
G1 X81.825 Y57.459 E35.57013
G1 X81.909 Y56.52 E35.64539
G1 X81.909 Y28.136 E37.91112
G1 X81.945 Y27.13 E37.99148
G1 X81.955 Y26.995 E38.00228
G1 X82.056 Y26.08 E38.07577
G1 X82.082 Y25.905 E38.08989
G1 X82.244 Y25.025 E38.16131
G1 X82.274 Y24.891 E38.17228
G1 X82.505 Y24.005 E38.24536
G0 F7200 X83.2 Y22.136
G1 F1350 X83.2 Y148.099 E48.30028
G0 F7200 X81.6 Y148.099
G1 F1350 X81.6 Y58.28 E55.47002
G0 F7200 X80 Y60.608
G1 F1350 X80 Y148.099 E62.45393
G0 F7200 X78.4 Y148.099
G1 F1350 X78.4 Y61.554 E69.36232
G0 F7200 X76.8 Y61.895
G1 F1350 X76.8 Y148.099 E76.2435
G0 F7200 X75.2 Y148.021
G1 F1350 X75.2 Y61.978 E83.11182
G0 F7200 X73.6 Y62.218
G1 F1350 X73.6 Y147.779 E89.94167
G0 F7200 X72 Y147.34
G1 F1350 X72 Y62.659 E96.70128
G0 F7200 X70.4 Y63.298
G1 F1350 X70.4 Y146.706 E103.35926
G0 F7200 X68.8 Y145.821
G1 F1350 X68.8 Y64.174 E109.87668
G0 F7200 X67.2 Y65.35
G1 F1350 X67.2 Y144.644 E116.20627
G0 F7200 X65.6 Y143.086
G1 F1350 X65.6 Y66.908 E122.28713
G0 F7200 X64 Y69.092
G1 F1350 X64 Y140.908 E128.01979
G0 F7200 X62.4 Y137.145
G1 F1350 X62.4 Y72.868 E133.15066
G0 F7200 X79.427 Y60.487
G0 X80.333 Y59.627
G0 X80.994 Y58.57
G0 X81.339 Y57.501
G0 X84.8 Y19.413
G1 F1350 X84.8 Y148.099 E143.42293
G0 F7200 X86.4 Y148.099
G1 F1350 X86.4 Y17.589 E153.8408
G0 F7200 X88 Y16.23
G1 F1350 X88 Y148.099 E164.36716
G0 F7200 X89.6 Y148.099
G1 F1350 X89.6 Y15.212 E174.97477
G0 F7200 X91.2 Y14.461
G1 F1350 X91.2 Y148.099 E185.64234
G0 F7200 X92.8 Y148.099
G1 F1350 X92.8 Y13.92 E196.35308
G0 F7200 X94.4 Y13.585
G1 F1350 X94.4 Y148.099 E207.09057
G0 F7200 X96 Y148.099
G1 F1350 X96 Y13.422 E217.84107
G0 F7200 X97.6 Y13.406
G1 F1350 X97.6 Y148.099 E228.59285
G0 F7200 X99.2 Y148.099
G1 F1350 X99.2 Y13.406 E239.34463
G0 F7200 X100.8 Y13.406
G1 F1350 X100.8 Y148.099 E250.09641
G0 F7200 X102.4 Y148.099
G1 F1350 X102.4 Y13.406 E260.84818
G0 F7200 X104 Y13.406
G1 F1350 X104 Y148.099 E271.59996
G0 F7200 X105.6 Y148.099
G1 F1350 X105.6 Y13.406 E282.35174
G0 F7200 X107.2 Y13.406
G1 F1350 X107.2 Y148.099 E293.10352
G0 F7200 X108.8 Y148.099
G1 F1350 X108.8 Y13.406 E303.8553
G0 F7200 X110.4 Y13.406
G1 F1350 X110.4 Y148.099 E314.60707
G0 F7200 X112 Y148.099
G1 F1350 X112 Y13.406 E325.35885
G0 F7200 X113.6 Y13.406
G1 F1350 X113.6 Y148.099 E336.11063
G0 F7200 X115.2 Y148.099
G1 F1350 X115.2 Y13.406 E346.86241
G0 F7200 X116.8 Y13.406
G1 F1350 X116.8 Y148.099 E357.61418
G0 F7200 X118.4 Y148.099
G1 F1350 X118.4 Y13.406 E368.36596
G0 F7200 X120 Y13.406
G1 F1350 X120 Y148.099 E379.11774
G0 F7200 X121.6 Y148.099
G1 F1350 X121.6 Y13.406 E389.86952
G0 F7200 X123.2 Y13.406
G1 F1350 X123.2 Y148.099 E400.62129
G0 F7200 X124.8 Y148.099
G1 F1350 X124.8 Y13.406 E411.37307
G0 F7200 X126.4 Y13.406
G1 F1350 X126.4 Y148.099 E422.12485
G0 F7200 X128 Y148.099
G1 F1350 X128 Y13.406 E432.87663
G0 F7200 X129.6 Y13.406
G1 F1350 X129.6 Y148.099 E443.6284
G0 F7200 X131.2 Y148.099
G1 F1350 X131.2 Y13.406 E454.38018
G0 F7200 X132.8 Y13.406
G1 F1350 X132.8 Y148.099 E465.13196
G0 F7200 X134.4 Y148.099
G1 F1350 X134.4 Y13.406 E475.88374
G0 F7200 X136 Y13.406
G1 F1350 X136 Y148.099 E486.63552
G0 F7200 X137.6 Y148.099
G1 F1350 X137.6 Y13.406 E497.38729
G0 F7200 X139.2 Y13.406
G1 F1350 X139.2 Y148.099 E508.13907
G0 F7200 X140.8 Y148.099
G1 F1350 X140.8 Y13.406 E518.89085
G0 F7200 X142.4 Y13.406
G1 F1350 X142.4 Y148.099 E529.64263
G0 F7200 X144 Y148.099
G1 F1350 X144 Y13.406 E540.3944
G0 F7200 X145.6 Y13.406
G1 F1350 X145.6 Y148.099 E551.14618
G0 F7200 X147.2 Y148.099
G1 F1350 X147.2 Y13.406 E561.89796
G0 F7200 X148.8 Y13.406
G1 F1350 X148.8 Y148.099 E572.64974
G0 F7200 X150.4 Y148.099
G1 F1350 X150.4 Y13.406 E583.40151
G0 F7200 X152 Y13.406
G1 F1350 X152 Y148.099 E594.15329
G0 F7200 X153.6 Y148.099
G1 F1350 X153.6 Y13.414 E604.90443
G0 F7200 X155.2 Y13.527
G1 F1350 X155.2 Y148.099 E615.64655
G0 F7200 X156.8 Y148.099
G1 F1350 X156.8 Y13.817 E626.36552
G0 F7200 X158.4 Y14.298
G1 F1350 X158.4 Y148.099 E637.04609
G0 F7200 X160 Y148.099
G1 F1350 X160 Y14.997 E647.67087
G0 F7200 X161.6 Y15.938
G1 F1350 X161.6 Y148.099 E658.22053
G0 F7200 X163.2 Y148.099
G1 F1350 X163.2 Y17.195 E668.66986
G0 F7200 X164.8 Y18.882
G1 F1350 X164.8 Y148.099 E678.98452
G0 F7200 X166.4 Y148.099
G1 F1350 X166.4 Y21.273 E689.10832
G0 F7200 X168 Y26.375
G1 F1350 X168 Y148.099 E698.82485
G0 F7200 X169.6 Y148.099
G1 F1350 X169.6 Y60.228 E705.8391
G0 F7200 X171.2 Y61.381
G1 F1350 X171.2 Y148.099 E712.7613
G0 F7200 X172.8 Y148.099
G1 F1350 X172.8 Y61.842 E719.64671
G0 F7200 X174.4 Y61.938
G1 F1350 X174.4 Y148.059 E726.52126
G0 F7200 X176 Y147.855
G1 F1350 X176 Y62.147 E733.36284
G0 F7200 X177.6 Y62.527
G1 F1350 X177.6 Y147.47 E740.14336
G0 F7200 X179.2 Y146.886
G1 F1350 X179.2 Y63.12 E746.82992
G0 F7200 X180.8 Y63.935
G1 F1350 X180.8 Y146.064 E753.38582
G0 F7200 X182.4 Y144.971
G1 F1350 X182.4 Y65.022 E759.76769
G0 F7200 X184 Y66.483
G1 F1350 X184 Y143.522 E765.91728
G0 F7200 X185.6 Y141.546
G1 F1350 X185.6 Y68.464 E771.751
G0 F7200 X187.2 Y71.579
M104 S215
G1 F1350 X187.2 Y138.413 E777.08598
G0 F600 X187.2 Y138.413 Z0.69
G0 F7200 X184.926 Y67.546
;TIME_ELAPSED:444.434407
;LAYER:-4
;TYPE:SUPPORT
G1 F1350 X182.415 Y65.035 E777.61747
G1 X183.065 Y65.577 E777.74414
G1 X183.173 Y65.673 E777.76577
G1 X183.685 Y66.155 E777.87101
G1 X183.841 Y66.311 E777.90403
G1 X184.486 Y67.008 E778.04617
G1 X184.605 Y67.146 E778.07344
G0 F7200 X182.415 Y65.035
G1 F1350 X182.372 Y65 E778.08174
G1 X182.225 Y64.886 E778.10958
G1 X181.511 Y64.376 E778.24091
G1 X181.36 Y64.276 E778.26802
G1 X180.58 Y63.802 E778.40463
G1 X180.464 Y63.735 E778.42468
G1 X179.67 Y63.327 E778.55829
G1 X179.481 Y63.238 E778.58955
G1 X179 Y63.035 E778.66769
G1 X186.966 Y71.001 E780.35383
G1 X187.194 Y71.564 E780.44474
G1 X187.253 Y71.73 E780.47111
G1 X187.524 Y72.571 E780.60335
G1 X187.57 Y72.737 E780.62913
G1 X187.661 Y73.109 E780.68645
G1 X176.889 Y62.337 E782.96652
G1 X176.612 Y62.264 E783.0094
G1 X176.49 Y62.237 E783.0281
G1 X175.601 Y62.072 E783.16343
G1 X175.426 Y62.047 E783.18989
G1 X175.155 Y62.018 E783.23068
G1 X187.988 Y74.851 E785.94699
G1 X188.069 Y75.732 E786.07941
G1 X188.078 Y75.884 E786.1022
G1 X188.092 Y76.369 E786.17482
G1 X173.632 Y61.91 E789.2354
G1 X172.982 Y61.885 E789.33276
G1 X172.982 Y61.86 E789.3365
G1 X172.549 Y61.816 E789.40164
G1 X171.986 Y61.678 E789.4884
G1 X188.099 Y77.79 E792.89888
G1 X188.099 Y79.205 E793.11066
G1 X122.3 Y13.406 E807.03808
G1 X120.886 Y13.406 E807.24972
G1 X188.099 Y80.619 E821.47644
G1 X188.099 Y82.033 E821.68807
G1 X119.472 Y13.406 E836.21409
G1 X118.057 Y13.406 E836.42587
G1 X188.099 Y83.447 E851.25129
G1 X188.099 Y84.862 E851.46308
G1 X116.643 Y13.406 E866.5879
G1 X115.229 Y13.406 E866.79953
G1 X188.099 Y86.276 E882.22365
G1 X188.099 Y87.69 E882.43528
G1 X113.815 Y13.406 E898.15869
G1 X112.4 Y13.406 E898.37048
G1 X188.099 Y89.104 E914.39329
G1 X188.099 Y90.518 E914.60492
G1 X110.986 Y13.406 E930.92703
G1 X109.572 Y13.406 E931.13867
G1 X188.099 Y91.933 E947.76018
G1 X188.099 Y93.347 E947.97182
G1 X108.158 Y13.406 E964.89262
G1 X106.744 Y13.406 E965.10426
G1 X188.099 Y94.761 E982.32436
