;FLAVOR:Marlin
;TIME:2337
;Filament used: 2.78398m
;Layer height: 0.3
;MINX:48.145
;MINY:65.566
;MINZ:0.3
;MAXX:128.666
;MAXY:137.166
;MAXZ:54.9
;Generated with Cura_SteamEngine 4.11.0
M140 S60
M105
M190 S60
M104 S215
M105
M109 S215
M82 ;absolute extrusion mode
G21 ;metric values
G90 ;absolute positioning
M82 ;set extruder to absolute mode
M107 ;start with the fan off
G28 X0 Y0 ;move X/Y to min endstops
G28 Z0 ;move Z to min endstops
G1 Z15.0 F9000 ;move the platform down 15mm
G92 E0 ;zero the extruded length
G1 F200 E3 ;extrude 3mm of feed stock
G92 E0 ;zero the extruded length again
G1 F9000
;Put printing message on LCD screen
M117 Printing...
G92 E0
G92 E0
G1 F1500 E-6.5
;LAYER_COUNT:183
;LAYER:0
M107
G0 F3600 X51.815 Y75.369 Z0.3
;TYPE:SKIRT
G1 F1500 E0
G1 F1800 X52.506 Y74.985 E0.03944
G1 X53.231 Y74.673 E0.07882
G1 X53.984 Y74.436 E0.1182
G1 X54.758 Y74.277 E0.15762
G1 X55.543 Y74.196 E0.19699
G1 X55.945 Y74.186 E0.21706
G1 X70.945 Y74.186 E0.96541
G1 X71.734 Y74.226 E1.00482
G1 X72.514 Y74.345 E1.04419
G1 X73.279 Y74.543 E1.08361
G1 X74.019 Y74.817 E1.12298
G1 X74.728 Y75.165 E1.16238
G1 X75.399 Y75.583 E1.20182
G1 X76.023 Y76.066 E1.24119
G1 X76.596 Y76.609 E1.28058
G1 X77.111 Y77.208 E1.31999
G1 X77.562 Y77.856 E1.35938
G1 X77.946 Y78.547 E1.39881
G1 X78.258 Y79.272 E1.43819
G1 X78.495 Y80.025 E1.47758
G1 X78.654 Y80.799 E1.517
G1 X78.735 Y81.584 E1.55637
G1 X78.745 Y81.986 E1.57643
G1 X78.745 Y101.986 E2.57424
G1 X78.705 Y102.775 E2.61365
G1 X78.586 Y103.555 E2.65301
G1 X78.388 Y104.32 E2.69244
G1 X78.114 Y105.06 E2.73181
G1 X77.766 Y105.769 E2.77121
G1 X77.348 Y106.44 E2.81065
G1 X76.865 Y107.064 E2.85002
G1 X76.322 Y107.637 E2.8894
G1 X75.723 Y108.152 E2.92881
G1 X75.075 Y108.603 E2.9682
G1 X74.384 Y108.987 E3.00764
G1 X73.659 Y109.299 E3.04702
G1 X72.906 Y109.536 E3.0864
G1 X72.132 Y109.695 E3.12582
G1 X71.347 Y109.776 E3.1652
G1 X70.945 Y109.786 E3.18526
G1 X55.945 Y109.786 E3.93361
G1 X55.156 Y109.746 E3.97302
G1 X54.376 Y109.627 E4.01239
G1 X53.611 Y109.429 E4.05181
G1 X52.871 Y109.155 E4.09118
G1 X52.162 Y108.807 E4.13058
G1 X51.491 Y108.389 E4.17003
G1 X50.867 Y107.906 E4.20939
G1 X50.294 Y107.363 E4.24878
G1 X49.779 Y106.764 E4.28819
G1 X49.328 Y106.116 E4.32758
G1 X48.944 Y105.425 E4.36702
G1 X48.632 Y104.7 E4.40639
G1 X48.395 Y103.947 E4.44578
G1 X48.236 Y103.173 E4.4852
G1 X48.155 Y102.388 E4.52457
G1 X48.145 Y101.986 E4.54463
G1 X48.145 Y81.986 E5.54244
G1 X48.185 Y81.197 E5.58185
G1 X48.304 Y80.417 E5.62122
G1 X48.502 Y79.652 E5.66064
G1 X48.776 Y78.912 E5.70001
G1 X49.124 Y78.203 E5.73941
G1 X49.542 Y77.532 E5.77885
G1 X50.025 Y76.908 E5.81822
G1 X50.568 Y76.335 E5.8576
G1 X51.167 Y75.82 E5.89701
G1 X51.815 Y75.369 E5.9364
G0 F3600 X52.198 Y75.605
G1 F1800 X52.881 Y75.25 E5.97481
G1 X53.596 Y74.969 E6.01313
G1 X54.338 Y74.763 E6.05155
G1 X55.096 Y74.635 E6.0899
G1 X55.945 Y74.586 E6.13233
G1 X70.945 Y74.586 E6.88068
G1 X71.713 Y74.626 E6.91905
G1 X72.473 Y74.745 E6.95743
G1 X73.216 Y74.943 E6.99579
G1 X73.935 Y75.217 E7.03418
G1 X74.621 Y75.564 E7.07253
G1 X75.268 Y75.98 E7.11091
G1 X75.868 Y76.461 E7.14927
G1 X76.415 Y77.002 E7.18766
G1 X76.903 Y77.597 E7.22605
G1 X77.326 Y78.239 E7.26441
G1 X77.681 Y78.922 E7.30281
G1 X77.962 Y79.637 E7.34114
G1 X78.168 Y80.379 E7.37955
G1 X78.296 Y81.137 E7.41791
G1 X78.345 Y81.986 E7.46033
G1 X78.345 Y101.986 E8.45814
G1 X78.305 Y102.754 E8.49651
G1 X78.186 Y103.514 E8.53488
G1 X77.988 Y104.257 E8.57325
G1 X77.714 Y104.976 E8.61163
G1 X77.367 Y105.662 E8.64999
G1 X76.951 Y106.309 E8.68836
G1 X76.47 Y106.909 E8.72673
G1 X75.929 Y107.456 E8.76511
G1 X75.334 Y107.944 E8.8035
G1 X74.692 Y108.367 E8.84186
G1 X74.009 Y108.722 E8.88026
G1 X73.294 Y109.003 E8.91859
G1 X72.552 Y109.209 E8.95701
G1 X71.794 Y109.337 E8.99536
G1 X70.945 Y109.386 E9.03779
G1 X55.945 Y109.386 E9.78614
G1 X55.177 Y109.346 E9.82451
G1 X54.417 Y109.227 E9.86289
G1 X53.674 Y109.029 E9.90125
G1 X52.955 Y108.755 E9.93964
G1 X52.269 Y108.408 E9.97799
G1 X51.622 Y107.992 E10.01637
G1 X51.022 Y107.511 E10.05473
G1 X50.475 Y106.97 E10.09312
G1 X49.987 Y106.375 E10.13151
G1 X49.564 Y105.733 E10.16986
G1 X49.209 Y105.05 E10.20827
G1 X48.928 Y104.335 E10.24659
G1 X48.722 Y103.593 E10.28501
G1 X48.594 Y102.835 E10.32337
G1 X48.545 Y101.986 E10.36579
G1 X48.545 Y81.986 E11.3636
G1 X48.585 Y81.218 E11.40196
G1 X48.704 Y80.458 E11.44034
G1 X48.902 Y79.715 E11.4787
G1 X49.176 Y78.996 E11.51709
G1 X49.523 Y78.31 E11.55545
G1 X49.939 Y77.663 E11.59382
G1 X50.42 Y77.063 E11.63219
G1 X50.961 Y76.516 E11.67057
G1 X51.556 Y76.028 E11.70896
G1 X52.198 Y75.605 E11.74732
G0 F3600 X51.943 Y76.243
G1 F1800 X52.579 Y75.848 E11.78467
G1 X53.253 Y75.524 E11.82198
G1 X53.958 Y75.274 E11.8593
G1 X54.686 Y75.1 E11.89664
G1 X55.428 Y75.005 E11.93396
G1 X55.945 Y74.986 E11.95977
G1 X70.945 Y74.986 E12.70813
G1 X71.692 Y75.026 E12.74545
G1 X72.43 Y75.145 E12.78274
G1 X73.152 Y75.343 E12.82009
G1 X73.848 Y75.616 E12.85739
G1 X74.511 Y75.963 E12.89473
G1 X75.134 Y76.378 E12.93207
G1 X75.708 Y76.857 E12.96937
G1 X76.229 Y77.394 E13.0067
G1 X76.688 Y77.984 E13.04399
G1 X77.083 Y78.62 E13.08134
G1 X77.407 Y79.294 E13.11865
G1 X77.657 Y79.999 E13.15597
G1 X77.831 Y80.727 E13.19331
G1 X77.926 Y81.469 E13.23064
G1 X77.945 Y81.986 E13.25645
G1 X77.945 Y101.986 E14.25425
G1 X77.905 Y102.733 E14.29157
G1 X77.786 Y103.471 E14.32887
G1 X77.588 Y104.193 E14.36622
G1 X77.315 Y104.889 E14.40352
G1 X76.968 Y105.552 E14.44085
G1 X76.553 Y106.175 E14.4782
G1 X76.074 Y106.749 E14.51549
G1 X75.537 Y107.27 E14.55282
G1 X74.947 Y107.729 E14.59012
G1 X74.311 Y108.124 E14.62747
G1 X73.637 Y108.448 E14.66478
G1 X72.932 Y108.698 E14.7021
G1 X72.204 Y108.872 E14.73944
G1 X71.462 Y108.967 E14.77676
G1 X70.945 Y108.986 E14.80257
G1 X55.945 Y108.986 E15.55092
G1 X55.198 Y108.946 E15.58824
G1 X54.46 Y108.827 E15.62554
G1 X53.738 Y108.629 E15.66289
G1 X53.042 Y108.356 E15.70019
G1 X52.379 Y108.009 E15.73752
G1 X51.756 Y107.594 E15.77487
G1 X51.182 Y107.115 E15.81217
G1 X50.661 Y106.578 E15.8495
G1 X50.202 Y105.988 E15.88679
G1 X49.807 Y105.352 E15.92414
G1 X49.483 Y104.678 E15.96145
G1 X49.233 Y103.973 E15.99877
G1 X49.059 Y103.245 E16.03611
G1 X48.964 Y102.503 E16.07343
G1 X48.945 Y101.986 E16.09924
G1 X48.945 Y81.986 E17.09705
G1 X48.985 Y81.239 E17.13437
G1 X49.104 Y80.501 E17.17166
G1 X49.302 Y79.779 E17.20901
G1 X49.575 Y79.083 E17.24631
G1 X49.922 Y78.42 E17.28365
G1 X50.337 Y77.797 E17.32099
G1 X50.816 Y77.223 E17.35829
G1 X51.353 Y76.702 E17.39562
G1 X51.943 Y76.243 E17.43291
G0 F3600 X52.329 Y76.465
G1 F1800 X52.958 Y76.101 E17.46917
G1 X53.623 Y75.808 E17.50542
G1 X54.316 Y75.59 E17.54167
G1 X55.028 Y75.45 E17.57787
G1 X55.945 Y75.386 E17.62373
G1 X70.945 Y75.386 E18.37208
G1 X71.67 Y75.426 E18.40831
G1 X72.387 Y75.545 E18.44457
G1 X73.086 Y75.743 E18.48082
G1 X73.759 Y76.016 E18.51705
G1 X74.398 Y76.361 E18.55328
G1 X74.995 Y76.775 E18.58952
G1 X75.543 Y77.251 E18.62574
G1 X76.036 Y77.785 E18.662
G1 X76.466 Y78.37 E18.69822
G1 X76.83 Y78.999 E18.73448
G1 X77.123 Y79.664 E18.77073
G1 X77.341 Y80.357 E18.80697
G1 X77.481 Y81.069 E18.84318
G1 X77.545 Y81.986 E18.88904
G1 X77.545 Y101.986 E19.88684
G1 X77.505 Y102.711 E19.92307
G1 X77.386 Y103.428 E19.95933
G1 X77.188 Y104.127 E19.99557
G1 X76.915 Y104.8 E20.03181
G1 X76.57 Y105.439 E20.06804
G1 X76.156 Y106.036 E20.10428
G1 X75.68 Y106.584 E20.14049
G1 X75.146 Y107.077 E20.17675
G1 X74.561 Y107.507 E20.21297
G1 X73.932 Y107.871 E20.24923
G1 X73.267 Y108.164 E20.28549
G1 X72.574 Y108.382 E20.32173
G1 X71.862 Y108.522 E20.35793
G1 X70.945 Y108.586 E20.40379
G1 X55.945 Y108.586 E21.15215
G1 X55.22 Y108.546 E21.18837
G1 X54.503 Y108.427 E21.22463
G1 X53.804 Y108.229 E21.26088
G1 X53.131 Y107.956 E21.29711
G1 X52.492 Y107.611 E21.33334
G1 X51.895 Y107.197 E21.36959
G1 X51.347 Y106.721 E21.4058
G1 X50.854 Y106.187 E21.44206
G1 X50.424 Y105.602 E21.47828
G1 X50.06 Y104.973 E21.51454
G1 X49.767 Y104.308 E21.55079
G1 X49.549 Y103.615 E21.58704
G1 X49.409 Y102.903 E21.62324
G1 X49.345 Y101.986 E21.6691
G1 X49.345 Y81.986 E22.6669
G1 X49.385 Y81.261 E22.70313
G1 X49.504 Y80.544 E22.73939
G1 X49.702 Y79.845 E22.77563
G1 X49.975 Y79.172 E22.81187
G1 X50.32 Y78.533 E22.8481
G1 X50.734 Y77.936 E22.88434
G1 X51.21 Y77.388 E22.92056
G1 X51.744 Y76.895 E22.95681
G1 X52.329 Y76.465 E22.99304
G0 F3600 X52.713 Y76.695
G1 F1800 X53.334 Y76.363 E23.02817
G1 X53.988 Y76.103 E23.06328
G1 X54.668 Y75.919 E23.09843
G1 X55.364 Y75.813 E23.13355
G1 X55.945 Y75.786 E23.16257
G1 X70.945 Y75.786 E23.91092
G1 X71.648 Y75.826 E23.94605
G1 X72.342 Y75.945 E23.98118
G1 X73.017 Y76.143 E24.01627
G1 X73.666 Y76.415 E24.05138
G1 X74.28 Y76.76 E24.08652
G1 X74.851 Y77.171 E24.12162
G1 X75.372 Y77.645 E24.15676
G1 X75.836 Y78.175 E24.1919
G1 X76.236 Y78.754 E24.22701
G1 X76.568 Y79.375 E24.26214
G1 X76.828 Y80.029 E24.29725
G1 X77.012 Y80.709 E24.3324
G1 X77.118 Y81.405 E24.36752
G1 X77.145 Y81.986 E24.39654
G1 X77.145 Y101.986 E25.39435
G1 X77.105 Y102.689 E25.42947
G1 X76.986 Y103.383 E25.4646
G1 X76.788 Y104.058 E25.4997
G1 X76.516 Y104.707 E25.53481
G1 X76.171 Y105.321 E25.56994
G1 X75.76 Y105.892 E25.60504
G1 X75.286 Y106.413 E25.64018
G1 X74.756 Y106.877 E25.67533
G1 X74.177 Y107.277 E25.71044
G1 X73.556 Y107.609 E25.74557
G1 X72.902 Y107.869 E25.78068
G1 X72.222 Y108.053 E25.81582
G1 X71.526 Y108.159 E25.85095
G1 X70.945 Y108.186 E25.87997
G1 X55.945 Y108.186 E26.62832
G1 X55.242 Y108.146 E26.66345
G1 X54.548 Y108.027 E26.69858
G1 X53.873 Y107.829 E26.73367
G1 X53.224 Y107.557 E26.76878
G1 X52.61 Y107.212 E26.80392
G1 X52.039 Y106.801 E26.83902
G1 X51.518 Y106.327 E26.87416
G1 X51.054 Y105.797 E26.9093
G1 X50.654 Y105.218 E26.94441
G1 X50.322 Y104.597 E26.97954
G1 X50.062 Y103.943 E27.01465
G1 X49.878 Y103.263 E27.0498
G1 X49.772 Y102.567 E27.08492
G1 X49.745 Y101.986 E27.11394
G1 X49.745 Y81.986 E28.11174
G1 X49.785 Y81.283 E28.14687
G1 X49.904 Y80.589 E28.182
G1 X50.102 Y79.914 E28.2171
G1 X50.374 Y79.265 E28.25221
G1 X50.719 Y78.651 E28.28734
G1 X51.13 Y78.08 E28.32244
G1 X51.604 Y77.559 E28.35758
G1 X52.134 Y77.095 E28.39273
G1 X52.713 Y76.695 E28.42783
G0 F3600 X53.095 Y76.934
G1 F1800 X53.707 Y76.635 E28.46182
G1 X54.349 Y76.41 E28.49576
G1 X55.014 Y76.261 E28.52976
G1 X55.945 Y76.186 E28.57635
G1 X70.945 Y76.186 E29.32471
G1 X71.625 Y76.226 E29.35869
G1 X72.295 Y76.345 E29.39264
G1 X72.947 Y76.542 E29.42662
G1 X73.571 Y76.814 E29.46058
G1 X74.159 Y77.158 E29.49457
G1 X74.703 Y77.568 E29.52855
G1 X75.194 Y78.039 E29.5625
G1 X75.628 Y78.564 E29.59648
G1 X75.997 Y79.136 E29.63044
G1 X76.296 Y79.748 E29.66442
G1 X76.521 Y80.39 E29.69836
G1 X76.67 Y81.055 E29.73236
G1 X76.745 Y81.986 E29.77896
G1 X76.745 Y101.986 E30.77677
G1 X76.705 Y102.666 E30.81075
G1 X76.586 Y103.336 E30.8447
G1 X76.389 Y103.988 E30.87868
G1 X76.117 Y104.612 E30.91264
G1 X75.773 Y105.2 E30.94663
G1 X75.363 Y105.744 E30.98061
G1 X74.892 Y106.235 E31.01456
G1 X74.367 Y106.669 E31.04854
G1 X73.795 Y107.038 E31.0825
G1 X73.183 Y107.337 E31.11648
G1 X72.541 Y107.562 E31.15042
G1 X71.876 Y107.711 E31.18442
G1 X70.945 Y107.786 E31.23102
G1 X55.945 Y107.786 E31.97937
G1 X55.265 Y107.746 E32.01336
G1 X54.595 Y107.627 E32.04731
G1 X53.943 Y107.43 E32.08129
G1 X53.319 Y107.158 E32.11525
G1 X52.731 Y106.814 E32.14923
G1 X52.187 Y106.404 E32.18322
G1 X51.696 Y105.933 E32.21716
G1 X51.262 Y105.408 E32.25115
G1 X50.893 Y104.836 E32.28511
G1 X50.594 Y104.224 E32.31909
G1 X50.369 Y103.582 E32.35303
G1 X50.22 Y102.917 E32.38703
G1 X50.145 Y101.986 E32.43363
G1 X50.145 Y81.986 E33.43143
G1 X50.185 Y81.306 E33.46542
G1 X50.304 Y80.636 E33.49936
G1 X50.501 Y79.984 E33.53335
G1 X50.773 Y79.36 E33.56731
G1 X51.117 Y78.772 E33.60129
G1 X51.527 Y78.228 E33.63528
G1 X51.998 Y77.737 E33.66922
G1 X52.523 Y77.303 E33.70321
G1 X53.095 Y76.934 E33.73717
G0 F3600 X52.91 Y77.52
G1 F1800 X53.474 Y77.184 E33.76992
G1 X54.076 Y76.92 E33.80271
G1 X54.705 Y76.73 E33.8355
G1 X55.352 Y76.619 E33.86825
G1 X55.945 Y76.586 E33.89788
G1 X70.945 Y76.586 E34.64623
G1 X71.601 Y76.626 E34.67902
G1 X72.247 Y76.745 E34.71179
G1 X72.874 Y76.942 E34.74458
G1 X73.472 Y77.214 E34.77735
G1 X74.033 Y77.556 E34.81013
G1 X74.548 Y77.964 E34.84291
G1 X75.01 Y78.431 E34.87569
G1 X75.411 Y78.951 E34.90845
G1 X75.747 Y79.515 E34.9412
G1 X76.011 Y80.117 E34.97399
G1 X76.201 Y80.746 E35.00678
G1 X76.312 Y81.393 E35.03953
G1 X76.345 Y81.986 E35.06916
G1 X76.345 Y101.986 E36.06696
G1 X76.305 Y102.642 E36.09975
G1 X76.186 Y103.288 E36.13252
G1 X75.989 Y103.915 E36.16531
G1 X75.717 Y104.513 E36.19809
G1 X75.375 Y105.074 E36.23087
G1 X74.967 Y105.589 E36.26364
G1 X74.5 Y106.051 E36.29642
G1 X73.98 Y106.452 E36.32918
G1 X73.416 Y106.788 E36.36193
G1 X72.814 Y107.052 E36.39473
G1 X72.185 Y107.242 E36.42751
G1 X71.538 Y107.353 E36.46026
G1 X70.945 Y107.386 E36.48989
G1 X55.945 Y107.386 E37.23824
G1 X55.289 Y107.346 E37.27103
G1 X54.643 Y107.227 E37.3038
G1 X54.016 Y107.03 E37.33659
G1 X53.418 Y106.758 E37.36937
G1 X52.857 Y106.416 E37.40215
G1 X52.342 Y106.008 E37.43493
G1 X51.88 Y105.541 E37.4677
G1 X51.479 Y105.021 E37.50046
G1 X51.143 Y104.457 E37.53321
G1 X50.879 Y103.855 E37.56601
G1 X50.689 Y103.226 E37.59879
G1 X50.578 Y102.579 E37.63154
G1 X50.545 Y101.986 E37.66117
G1 X50.545 Y81.986 E38.65897
G1 X50.585 Y81.33 E38.69176
G1 X50.704 Y80.684 E38.72453
G1 X50.901 Y80.057 E38.75732
G1 X51.173 Y79.459 E38.7901
G1 X51.515 Y78.898 E38.82288
G1 X51.923 Y78.383 E38.85566
G1 X52.39 Y77.921 E38.88843
G1 X52.91 Y77.52 E38.92119
G0 F3600 X53.295 Y77.746
G1 F1800 X53.851 Y77.446 E38.95271
G1 X54.44 Y77.218 E38.98422
G1 X55.054 Y77.066 E39.01578
G1 X55.945 Y76.986 E39.06041
G1 X70.945 Y76.986 E39.80876
G1 X71.576 Y77.026 E39.84031
G1 X72.197 Y77.145 E39.87185
G1 X72.797 Y77.342 E39.90336
G1 X73.369 Y77.613 E39.93494
G1 X73.901 Y77.953 E39.96644
G1 X74.386 Y78.359 E39.99799
G1 X74.816 Y78.822 E40.02952
G1 X75.185 Y79.336 E40.06108
G1 X75.485 Y79.892 E40.0926
G1 X75.713 Y80.481 E40.12411
G1 X75.865 Y81.095 E40.15567
G1 X75.945 Y81.986 E40.2003
G1 X75.945 Y101.986 E41.1981
G1 X75.905 Y102.617 E41.22965
G1 X75.786 Y103.238 E41.26119
G1 X75.589 Y103.838 E41.2927
G1 X75.318 Y104.41 E41.32428
G1 X74.978 Y104.942 E41.35578
G1 X74.572 Y105.427 E41.38733
G1 X74.109 Y105.857 E41.41886
G1 X73.595 Y106.226 E41.45042
G1 X73.039 Y106.526 E41.48194
G1 X72.45 Y106.754 E41.51345
G1 X71.836 Y106.906 E41.54501
G1 X70.945 Y106.986 E41.58964
G1 X55.945 Y106.986 E42.338
G1 X55.314 Y106.946 E42.36954
G1 X54.693 Y106.827 E42.40108
G1 X54.093 Y106.63 E42.43259
G1 X53.521 Y106.359 E42.46417
G1 X52.989 Y106.019 E42.49567
G1 X52.504 Y105.613 E42.52722
G1 X52.074 Y105.15 E42.55875
G1 X51.705 Y104.636 E42.59032
G1 X51.405 Y104.08 E42.62184
G1 X51.177 Y103.491 E42.65335
G1 X51.025 Y102.877 E42.6849
G1 X50.945 Y101.986 E42.72953
G1 X50.945 Y81.986 E43.72734
G1 X50.985 Y81.355 E43.75888
G1 X51.104 Y80.734 E43.79043
G1 X51.301 Y80.134 E43.82193
G1 X51.572 Y79.562 E43.85351
G1 X51.912 Y79.03 E43.88501
G1 X52.318 Y78.545 E43.91657
G1 X52.781 Y78.115 E43.94809
G1 X53.295 Y77.746 E43.97966
G0 F3600 X53.677 Y77.984
G1 F1800 X54.223 Y77.72 E44.00992
G1 X54.799 Y77.531 E44.04016
G1 X55.395 Y77.419 E44.07041
G1 X55.945 Y77.386 E44.0979
G1 X70.945 Y77.386 E44.84626
G1 X71.55 Y77.426 E44.87651
G1 X72.144 Y77.545 E44.90673
G1 X72.718 Y77.741 E44.93699
G1 X73.261 Y78.012 E44.96727
G1 X73.764 Y78.351 E44.99753
G1 X74.217 Y78.753 E45.02774
G1 X74.614 Y79.211 E45.05798
G1 X74.947 Y79.718 E45.08825
G1 X75.211 Y80.264 E45.1185
G1 X75.4 Y80.84 E45.14875
G1 X75.512 Y81.436 E45.179
G1 X75.545 Y81.986 E45.20649
G1 X75.545 Y101.986 E46.2043
G1 X75.505 Y102.591 E46.23455
G1 X75.386 Y103.185 E46.26477
G1 X75.19 Y103.759 E46.29503
G1 X74.919 Y104.302 E46.32531
G1 X74.58 Y104.805 E46.35557
G1 X74.178 Y105.258 E46.38578
G1 X73.72 Y105.655 E46.41602
G1 X73.213 Y105.988 E46.44629
G1 X72.667 Y106.252 E46.47654
G1 X72.091 Y106.441 E46.50679
G1 X71.495 Y106.553 E46.53704
G1 X70.945 Y106.586 E46.56453
G1 X55.945 Y106.586 E47.31288
G1 X55.34 Y106.546 E47.34313
G1 X54.746 Y106.427 E47.37336
G1 X54.172 Y106.231 E47.40362
G1 X53.629 Y105.96 E47.43389
