;FLAVOR:Marlin
;TIME:2836
;Filament used: 3.60068m
;Layer height: 0.3
;MINX:48.145
;MINY:65.566
;MINZ:0.3
;MAXX:128.666
;MAXY:137.166
;MAXZ:54.9
;Generated with Cura_SteamEngine 4.11.0
M140 S60
M105
M190 S60
M104 S215
M105
M109 S215
M82 ;absolute extrusion mode
G21 ;metric values
G90 ;absolute positioning
M82 ;set extruder to absolute mode
M107 ;start with the fan off
G28 X0 Y0 ;move X/Y to min endstops
G28 Z0 ;move Z to min endstops
G1 Z15.0 F9000 ;move the platform down 15mm
G92 E0 ;zero the extruded length
G1 F200 E3 ;extrude 3mm of feed stock
G92 E0 ;zero the extruded length again
G1 F9000
;Put printing message on LCD screen
M117 Printing...
G92 E0
G92 E0
G1 F1500 E-6.5
;LAYER_COUNT:183
;LAYER:0
M107
G0 F3600 X51.769 Y75.474 Z0.3
;TYPE:SKIRT
G1 F1500 E0
G1 F1800 X52.449 Y75.073 E0.03938
G1 X53.167 Y74.743 E0.07881
G1 X53.914 Y74.488 E0.11819
G1 X54.683 Y74.309 E0.15758
G1 X55.467 Y74.209 E0.19701
G1 X56.062 Y74.186 E0.22672
G1 X70.828 Y74.186 E0.9634
G1 X71.617 Y74.226 E1.00281
G1 X72.397 Y74.345 E1.04217
G1 X73.162 Y74.543 E1.0816
G1 X73.902 Y74.817 E1.12097
G1 X74.611 Y75.165 E1.16037
G1 X75.282 Y75.583 E1.19981
G1 X75.906 Y76.066 E1.23918
G1 X76.343 Y76.471 E1.2689
G1 X76.46 Y76.588 E1.27716
G1 X76.99 Y77.174 E1.31658
G1 X77.457 Y77.81 E1.35594
G1 X77.858 Y78.49 E1.39533
G1 X78.188 Y79.208 E1.43475
G1 X78.443 Y79.955 E1.47413
G1 X78.622 Y80.724 E1.51352
G1 X78.722 Y81.508 E1.55295
G1 X78.745 Y82.103 E1.58266
G1 X78.745 Y101.869 E2.56879
G1 X78.705 Y102.658 E2.6082
G1 X78.586 Y103.438 E2.64757
G1 X78.388 Y104.203 E2.68699
G1 X78.114 Y104.943 E2.72636
G1 X77.766 Y105.652 E2.76576
G1 X77.348 Y106.323 E2.8052
G1 X76.865 Y106.947 E2.84457
G1 X76.46 Y107.384 E2.8743
G1 X76.343 Y107.501 E2.88255
G1 X75.757 Y108.031 E2.92197
G1 X75.121 Y108.498 E2.96134
G1 X74.441 Y108.899 E3.00072
G1 X73.723 Y109.229 E3.04015
G1 X72.976 Y109.484 E3.07952
G1 X72.207 Y109.663 E3.11892
G1 X71.423 Y109.763 E3.15835
G1 X70.828 Y109.786 E3.18805
G1 X56.062 Y109.786 E3.92473
G1 X55.273 Y109.746 E3.96415
G1 X54.493 Y109.627 E4.00351
G1 X53.728 Y109.429 E4.04293
G1 X52.988 Y109.155 E4.0823
G1 X52.279 Y108.807 E4.12171
G1 X51.608 Y108.389 E4.16115
G1 X50.984 Y107.906 E4.20051
G1 X50.547 Y107.501 E4.23024
G1 X50.43 Y107.384 E4.23849
G1 X49.9 Y106.798 E4.27791
G1 X49.433 Y106.162 E4.31728
G1 X49.032 Y105.482 E4.35666
G1 X48.702 Y104.764 E4.39609
G1 X48.447 Y104.017 E4.43547
G1 X48.268 Y103.248 E4.47486
G1 X48.168 Y102.464 E4.51429
G1 X48.145 Y101.869 E4.544
G1 X48.145 Y82.103 E5.53013
G1 X48.185 Y81.314 E5.56954
G1 X48.304 Y80.534 E5.6089
G1 X48.502 Y79.769 E5.64833
G1 X48.776 Y79.029 E5.6877
G1 X49.124 Y78.32 E5.7271
G1 X49.542 Y77.649 E5.76654
G1 X50.025 Y77.025 E5.80591
G1 X50.43 Y76.588 E5.83563
G1 X50.547 Y76.471 E5.84389
G1 X51.133 Y75.941 E5.88331
G1 X51.769 Y75.474 E5.92267
G0 F3600 X52.023 Y75.786
G1 F1800 X52.688 Y75.4 E5.96103
G1 X53.39 Y75.085 E5.99942
G1 X54.121 Y74.845 E6.03781
G1 X54.872 Y74.682 E6.07615
G1 X55.637 Y74.598 E6.11454
G1 X56.062 Y74.586 E6.13575
G1 X70.828 Y74.586 E6.87243
G1 X71.596 Y74.626 E6.9108
G1 X72.356 Y74.745 E6.94918
G1 X73.099 Y74.943 E6.98754
G1 X73.818 Y75.217 E7.02593
G1 X74.504 Y75.564 E7.06428
G1 X75.151 Y75.98 E7.10266
G1 X75.751 Y76.461 E7.14102
G1 X76.178 Y76.87 E7.17052
G1 X76.692 Y77.442 E7.20889
G1 X77.145 Y78.064 E7.24728
G1 X77.531 Y78.729 E7.28564
G1 X77.846 Y79.431 E7.32403
G1 X78.086 Y80.162 E7.36241
G1 X78.249 Y80.913 E7.40075
G1 X78.333 Y81.678 E7.43915
G1 X78.345 Y82.103 E7.46036
G1 X78.345 Y101.869 E8.44649
G1 X78.305 Y102.637 E8.48486
G1 X78.186 Y103.397 E8.52323
G1 X77.988 Y104.14 E8.5616
G1 X77.714 Y104.859 E8.59998
G1 X77.367 Y105.545 E8.63834
G1 X76.951 Y106.192 E8.67671
G1 X76.47 Y106.792 E8.71508
G1 X76.061 Y107.219 E8.74458
G1 X75.489 Y107.733 E8.78294
G1 X74.867 Y108.186 E8.82133
G1 X74.202 Y108.572 E8.85969
G1 X73.5 Y108.887 E8.89808
G1 X72.769 Y109.127 E8.93647
G1 X72.018 Y109.29 E8.97481
G1 X71.253 Y109.374 E9.0132
G1 X70.828 Y109.386 E9.03441
G1 X56.062 Y109.386 E9.77109
G1 X55.294 Y109.346 E9.80946
G1 X54.534 Y109.227 E9.84784
G1 X53.791 Y109.029 E9.8862
G1 X53.072 Y108.755 E9.92459
G1 X52.386 Y108.408 E9.96294
G1 X51.739 Y107.992 E10.00132
G1 X51.139 Y107.511 E10.03968
G1 X50.712 Y107.102 E10.06918
G1 X50.198 Y106.53 E10.10755
G1 X49.745 Y105.908 E10.14594
G1 X49.359 Y105.243 E10.1843
G1 X49.044 Y104.541 E10.22269
G1 X48.804 Y103.81 E10.26107
G1 X48.641 Y103.059 E10.29941
G1 X48.557 Y102.294 E10.33781
G1 X48.545 Y101.869 E10.35902
G1 X48.545 Y82.103 E11.34515
G1 X48.585 Y81.335 E11.38352
G1 X48.704 Y80.575 E11.42189
G1 X48.902 Y79.832 E11.46026
G1 X49.176 Y79.113 E11.49864
G1 X49.523 Y78.427 E11.537
G1 X49.939 Y77.78 E11.57537
G1 X50.42 Y77.18 E11.61374
G1 X50.829 Y76.753 E11.64324
G1 X51.401 Y76.239 E11.6816
G1 X52.023 Y75.786 E11.71999
G0 F3600 X52.275 Y76.099
G1 F1800 X52.925 Y75.728 E11.75733
G1 X53.611 Y75.429 E11.79467
G1 X54.325 Y75.205 E11.832
G1 X55.058 Y75.058 E11.8693
G1 X56.062 Y74.986 E11.91952
G1 X70.828 Y74.986 E12.65619
G1 X71.575 Y75.026 E12.69352
G1 X72.313 Y75.145 E12.73081
G1 X73.035 Y75.343 E12.76816
G1 X73.731 Y75.616 E12.80546
G1 X74.394 Y75.963 E12.84279
G1 X75.017 Y76.378 E12.88014
G1 X75.778 Y77.036 E12.93033
G1 X75.895 Y77.153 E12.93859
G1 X76.395 Y77.71 E12.97593
G1 X76.832 Y78.316 E13.0132
G1 X77.203 Y78.966 E13.05054
G1 X77.502 Y79.652 E13.08788
G1 X77.726 Y80.366 E13.12521
G1 X77.873 Y81.099 E13.16251
G1 X77.945 Y82.103 E13.21273
G1 X77.945 Y101.869 E14.19886
G1 X77.905 Y102.616 E14.23618
G1 X77.786 Y103.354 E14.27347
G1 X77.588 Y104.076 E14.31082
G1 X77.315 Y104.772 E14.34812
G1 X76.968 Y105.435 E14.38546
G1 X76.553 Y106.058 E14.4228
G1 X75.895 Y106.819 E14.47299
G1 X75.778 Y106.936 E14.48125
G1 X75.221 Y107.436 E14.51859
G1 X74.615 Y107.873 E14.55586
G1 X73.965 Y108.244 E14.5932
G1 X73.279 Y108.543 E14.63054
G1 X72.565 Y108.767 E14.66787
G1 X71.832 Y108.914 E14.70517
G1 X70.828 Y108.986 E14.75539
G1 X56.062 Y108.986 E15.49207
G1 X55.315 Y108.946 E15.52939
G1 X54.577 Y108.827 E15.56668
G1 X53.855 Y108.629 E15.60403
G1 X53.159 Y108.356 E15.64133
G1 X52.496 Y108.009 E15.67867
G1 X51.873 Y107.594 E15.71601
G1 X51.112 Y106.936 E15.7662
G1 X50.995 Y106.819 E15.77446
G1 X50.495 Y106.262 E15.8118
G1 X50.058 Y105.656 E15.84907
G1 X49.687 Y105.006 E15.88641
G1 X49.388 Y104.32 E15.92375
G1 X49.164 Y103.606 E15.96108
G1 X49.017 Y102.873 E15.99838
G1 X48.945 Y101.869 E16.0486
G1 X48.945 Y82.103 E17.03473
G1 X48.985 Y81.356 E17.07205
G1 X49.104 Y80.618 E17.10934
G1 X49.302 Y79.896 E17.14669
G1 X49.575 Y79.2 E17.18399
G1 X49.922 Y78.537 E17.22133
G1 X50.337 Y77.914 E17.25867
G1 X50.995 Y77.153 E17.30886
G1 X51.112 Y77.036 E17.31712
G1 X51.669 Y76.536 E17.35446
G1 X52.275 Y76.099 E17.39174
G0 F3600 X52.527 Y76.412
G1 F1800 X53.161 Y76.058 E17.42796
G1 X53.83 Y75.775 E17.4642
G1 X54.526 Y75.567 E17.50044
G1 X55.241 Y75.437 E17.5367
G1 X56.062 Y75.386 E17.57774
G1 X70.828 Y75.386 E18.31442
G1 X71.553 Y75.426 E18.35064
G1 X72.27 Y75.545 E18.3869
G1 X72.969 Y75.743 E18.42315
G1 X73.642 Y76.016 E18.45938
G1 X74.281 Y76.361 E18.49561
G1 X74.878 Y76.775 E18.53186
G1 X75.495 Y77.319 E18.5729
G1 X75.612 Y77.436 E18.58115
G1 X76.096 Y77.977 E18.61737
G1 X76.519 Y78.568 E18.65363
G1 X76.873 Y79.202 E18.68985
G1 X77.156 Y79.871 E18.72609
G1 X77.364 Y80.567 E18.76233
G1 X77.494 Y81.282 E18.79859
G1 X77.545 Y82.103 E18.83963
G1 X77.545 Y101.869 E19.82576
G1 X77.505 Y102.594 E19.86198
G1 X77.386 Y103.311 E19.89824
G1 X77.188 Y104.01 E19.93449
G1 X76.915 Y104.683 E19.97072
G1 X76.57 Y105.322 E20.00695
G1 X76.156 Y105.919 E20.0432
G1 X75.612 Y106.536 E20.08424
G1 X75.495 Y106.653 E20.09249
G1 X74.954 Y107.137 E20.12871
G1 X74.363 Y107.56 E20.16497
G1 X73.729 Y107.914 E20.20119
G1 X73.06 Y108.197 E20.23743
G1 X72.364 Y108.405 E20.27367
G1 X71.649 Y108.535 E20.30993
G1 X70.828 Y108.586 E20.35097
G1 X56.062 Y108.586 E21.08765
G1 X55.337 Y108.546 E21.12387
G1 X54.62 Y108.427 E21.16013
G1 X53.921 Y108.229 E21.19638
G1 X53.248 Y107.956 E21.23261
G1 X52.609 Y107.611 E21.26884
G1 X52.012 Y107.197 E21.30509
G1 X51.395 Y106.653 E21.34613
G1 X51.278 Y106.536 E21.35438
G1 X50.794 Y105.995 E21.3906
G1 X50.371 Y105.404 E21.42686
G1 X50.017 Y104.77 E21.46308
G1 X49.734 Y104.101 E21.49932
G1 X49.526 Y103.405 E21.53556
G1 X49.396 Y102.69 E21.57182
G1 X49.345 Y101.869 E21.61286
G1 X49.345 Y82.103 E22.59899
G1 X49.385 Y81.378 E22.63521
G1 X49.504 Y80.661 E22.67147
G1 X49.702 Y79.962 E22.70772
G1 X49.975 Y79.289 E22.74395
G1 X50.32 Y78.65 E22.78018
G1 X50.734 Y78.053 E22.81643
G1 X51.278 Y77.436 E22.85747
G1 X51.395 Y77.319 E22.86572
G1 X51.936 Y76.835 E22.90194
G1 X52.527 Y76.412 E22.9382
G0 F3600 X52.778 Y76.727
G1 F1800 X53.396 Y76.389 E22.97334
G1 X54.047 Y76.122 E23.00844
G1 X54.725 Y75.932 E23.04357
G1 X55.42 Y75.819 E23.0787
G1 X56.062 Y75.786 E23.11077
G1 X70.828 Y75.786 E23.84745
G1 X71.531 Y75.826 E23.88258
G1 X72.225 Y75.945 E23.91771
G1 X72.9 Y76.143 E23.9528
G1 X73.549 Y76.415 E23.98791
G1 X74.163 Y76.76 E24.02305
G1 X74.734 Y77.171 E24.05815
G1 X75.212 Y77.602 E24.09026
G1 X75.329 Y77.719 E24.09851
G1 X75.798 Y78.244 E24.13364
G1 X76.204 Y78.819 E24.16875
G1 X76.542 Y79.437 E24.20389
G1 X76.809 Y80.088 E24.239
G1 X76.999 Y80.766 E24.27413
G1 X77.112 Y81.461 E24.30926
G1 X77.145 Y82.103 E24.34133
G1 X77.145 Y101.869 E25.32746
G1 X77.105 Y102.572 E25.36259
G1 X76.986 Y103.266 E25.39772
G1 X76.788 Y103.941 E25.43281
G1 X76.516 Y104.59 E25.46792
G1 X76.171 Y105.204 E25.50306
G1 X75.76 Y105.775 E25.53816
G1 X75.329 Y106.253 E25.57027
G1 X75.212 Y106.37 E25.57852
G1 X74.687 Y106.839 E25.61364
G1 X74.112 Y107.245 E25.64876
G1 X73.494 Y107.583 E25.6839
G1 X72.843 Y107.85 E25.71901
G1 X72.165 Y108.04 E25.75413
G1 X71.47 Y108.153 E25.78926
G1 X70.828 Y108.186 E25.82134
G1 X56.062 Y108.186 E26.55801
G1 X55.359 Y108.146 E26.59314
G1 X54.665 Y108.027 E26.62827
G1 X53.99 Y107.829 E26.66337
G1 X53.341 Y107.557 E26.69848
G1 X52.727 Y107.212 E26.73361
G1 X52.156 Y106.801 E26.76871
G1 X51.678 Y106.37 E26.80082
G1 X51.561 Y106.253 E26.80908
G1 X51.092 Y105.728 E26.8442
G1 X50.686 Y105.153 E26.87932
G1 X50.348 Y104.535 E26.91446
G1 X50.081 Y103.884 E26.94956
G1 X49.891 Y103.206 E26.98469
G1 X49.778 Y102.511 E27.01982
G1 X49.745 Y101.869 E27.05189
G1 X49.745 Y82.103 E28.03802
G1 X49.785 Y81.4 E28.07315
G1 X49.904 Y80.706 E28.10828
G1 X50.102 Y80.031 E28.14337
G1 X50.374 Y79.382 E28.17848
G1 X50.719 Y78.768 E28.21362
G1 X51.13 Y78.197 E28.24872
G1 X51.561 Y77.719 E28.28083
G1 X51.678 Y77.602 E28.28908
G1 X52.203 Y77.133 E28.32421
G1 X52.778 Y76.727 E28.35932
G0 F3600 X53.028 Y77.043
G1 F1800 X53.628 Y76.721 E28.3933
G1 X54.262 Y76.472 E28.42728
G1 X54.921 Y76.299 E28.46127
G1 X55.595 Y76.205 E28.49522
G1 X56.062 Y76.186 E28.51854
G1 X70.828 Y76.186 E29.25522
G1 X71.508 Y76.226 E29.2892
G1 X72.178 Y76.345 E29.32315
G1 X72.83 Y76.542 E29.35713
G1 X73.454 Y76.814 E29.39109
G1 X74.042 Y77.158 E29.42508
G1 X74.586 Y77.568 E29.45906
G1 X75.046 Y78.002 E29.49062
G1 X75.499 Y78.511 E29.52461
G1 X75.888 Y79.069 E29.55855
G1 X76.21 Y79.669 E29.59252
G1 X76.459 Y80.303 E29.6265
G1 X76.632 Y80.962 E29.66049
G1 X76.726 Y81.636 E29.69444
G1 X76.745 Y82.103 E29.71776
G1 X76.745 Y101.869 E30.70389
G1 X76.705 Y102.549 E30.73788
G1 X76.586 Y103.219 E30.77183
G1 X76.389 Y103.871 E30.80581
G1 X76.117 Y104.495 E30.83977
G1 X75.773 Y105.083 E30.87375
G1 X75.363 Y105.627 E30.90774
G1 X74.929 Y106.087 E30.93929
G1 X74.42 Y106.54 E30.97329
G1 X73.862 Y106.929 E31.00722
G1 X73.262 Y107.251 E31.04119
G1 X72.628 Y107.5 E31.07518
G1 X71.969 Y107.673 E31.10917
G1 X71.295 Y107.767 E31.14312
G1 X70.828 Y107.786 E31.16644
G1 X56.062 Y107.786 E31.90312
G1 X55.382 Y107.746 E31.9371
G1 X54.712 Y107.627 E31.97105
G1 X54.06 Y107.43 E32.00503
G1 X53.436 Y107.158 E32.03899
G1 X52.848 Y106.814 E32.07298
G1 X52.304 Y106.404 E32.10696
G1 X51.844 Y105.97 E32.13851
G1 X51.391 Y105.461 E32.17251
G1 X51.002 Y104.903 E32.20645
G1 X50.68 Y104.303 E32.24042
G1 X50.431 Y103.669 E32.2744
G1 X50.258 Y103.01 E32.30839
G1 X50.164 Y102.336 E32.34234
G1 X50.145 Y101.869 E32.36566
G1 X50.145 Y82.103 E33.35179
G1 X50.185 Y81.423 E33.38577
G1 X50.304 Y80.753 E33.41972
G1 X50.501 Y80.101 E33.45371
G1 X50.773 Y79.477 E33.48767
G1 X51.117 Y78.889 E33.52165
G1 X51.527 Y78.345 E33.55564
G1 X51.961 Y77.885 E33.58719
G1 X52.47 Y77.432 E33.62118
G1 X53.028 Y77.043 E33.65512
G0 F3600 X53.277 Y77.36
G1 F1800 X53.859 Y77.056 E33.68788
G1 X54.474 Y76.825 E33.72065
G1 X55.113 Y76.67 E33.75346
G1 X56.062 Y76.586 E33.80099
G1 X70.828 Y76.586 E34.53767
G1 X71.484 Y76.626 E34.57046
G1 X72.13 Y76.745 E34.60323
G1 X72.757 Y76.942 E34.63602
G1 X73.355 Y77.214 E34.66879
G1 X73.916 Y77.556 E34.70157
G1 X74.646 Y78.168 E34.7491
G1 X74.763 Y78.285 E34.75735
G1 X75.199 Y78.777 E34.79015
G1 X75.571 Y79.318 E34.8229
G1 X75.875 Y79.9 E34.85566
G1 X76.106 Y80.515 E34.88844
G1 X76.261 Y81.154 E34.92124
G1 X76.345 Y82.103 E34.96877
G1 X76.345 Y101.869 E35.9549
G1 X76.305 Y102.525 E35.98769
G1 X76.186 Y103.171 E36.02046
G1 X75.989 Y103.798 E36.05325
G1 X75.717 Y104.396 E36.08603
G1 X75.375 Y104.957 E36.11881
G1 X74.763 Y105.687 E36.16633
G1 X74.646 Y105.804 E36.17459
G1 X74.154 Y106.24 E36.20738
G1 X73.613 Y106.612 E36.24014
G1 X73.031 Y106.916 E36.2729
G1 X72.416 Y107.147 E36.30567
G1 X71.777 Y107.302 E36.33848
G1 X70.828 Y107.386 E36.38601
G1 X56.062 Y107.386 E37.12269
G1 X55.406 Y107.346 E37.15548
G1 X54.76 Y107.227 E37.18825
G1 X54.133 Y107.03 E37.22104
G1 X53.535 Y106.758 E37.25381
G1 X52.974 Y106.416 E37.28659
G1 X52.244 Y105.804 E37.33412
G1 X52.127 Y105.687 E37.34237
G1 X51.691 Y105.195 E37.37517
G1 X51.319 Y104.654 E37.40793
G1 X51.015 Y104.072 E37.44068
G1 X50.784 Y103.457 E37.47346
G1 X50.629 Y102.818 E37.50626
G1 X50.545 Y101.869 E37.55379
G1 X50.545 Y82.103 E38.53992
G1 X50.585 Y81.447 E38.57271
G1 X50.704 Y80.801 E38.60548
G1 X50.901 Y80.174 E38.63827
G1 X51.173 Y79.576 E38.67105
G1 X51.515 Y79.015 E38.70383
G1 X52.127 Y78.285 E38.75135
G1 X52.244 Y78.168 E38.75961
G1 X52.736 Y77.732 E38.79241
G1 X53.277 Y77.36 E38.82516
G0 F3600 X53.524 Y77.678
G1 F1800 X54.088 Y77.392 E38.85671
G1 X54.683 Y77.18 E38.88822
G1 X55.301 Y77.044 E38.91979
G1 X56.062 Y76.986 E38.95787
G1 X70.828 Y76.986 E39.69455
G1 X71.459 Y77.026 E39.72609
G1 X72.08 Y77.145 E39.75764
G1 X72.68 Y77.342 E39.78914
G1 X73.252 Y77.613 E39.82072
G1 X73.784 Y77.953 E39.85222
G1 X74.364 Y78.45 E39.89033
G1 X74.481 Y78.567 E39.89858
G1 X74.898 Y79.042 E39.93012
G1 X75.253 Y79.565 E39.96165
G1 X75.539 Y80.129 E39.9932
G1 X75.751 Y80.724 E40.02471
G1 X75.887 Y81.342 E40.05628
G1 X75.945 Y82.103 E40.09436
G1 X75.945 Y101.869 E41.08049
G1 X75.905 Y102.5 E41.11203
G1 X75.786 Y103.121 E41.14358
G1 X75.589 Y103.721 E41.17509
G1 X75.318 Y104.293 E41.20666
G1 X74.978 Y104.825 E41.23816
G1 X74.481 Y105.405 E41.27627
G1 X74.364 Y105.522 E41.28453
G1 X73.889 Y105.939 E41.31606
G1 X73.366 Y106.294 E41.3476
G1 X72.802 Y106.58 E41.37914
G1 X72.207 Y106.792 E41.41066
G1 X71.589 Y106.928 E41.44223
G1 X70.828 Y106.986 E41.4803
G1 X56.062 Y106.986 E42.21698
G1 X55.431 Y106.946 E42.24853
G1 X54.81 Y106.827 E42.28007
G1 X54.21 Y106.63 E42.31158
G1 X53.638 Y106.359 E42.34316
G1 X53.106 Y106.019 E42.37465
G1 X52.526 Y105.522 E42.41276
G1 X52.409 Y105.405 E42.42102
G1 X51.992 Y104.93 E42.45255
G1 X51.637 Y104.407 E42.48409
G1 X51.351 Y103.843 E42.51564
G1 X51.139 Y103.248 E42.54715
G1 X51.003 Y102.63 E42.57872
G1 X50.945 Y101.869 E42.61679
G1 X50.945 Y82.103 E43.60292
G1 X50.985 Y81.472 E43.63447
G1 X51.104 Y80.851 E43.66601
G1 X51.301 Y80.251 E43.69752
G1 X51.572 Y79.679 E43.7291
G1 X51.912 Y79.147 E43.7606
G1 X52.409 Y78.567 E43.7987
G1 X52.526 Y78.45 E43.80696
G1 X53.001 Y78.033 E43.83849
G1 X53.524 Y77.678 E43.87003
G0 F3600 X53.77 Y77.998
G1 F1800 X54.314 Y77.731 E43.90026
G1 X54.889 Y77.538 E43.93052
G1 X55.484 Y77.422 E43.96076
G1 X56.062 Y77.386 E43.98966
G1 X70.828 Y77.386 E44.72634
G1 X71.433 Y77.426 E44.75659
G1 X72.027 Y77.545 E44.78681
G1 X72.601 Y77.741 E44.81707
G1 X73.144 Y78.012 E44.84735
G1 X73.647 Y78.351 E44.87761
G1 X74.081 Y78.733 E44.90645
G1 X74.198 Y78.85 E44.91471
